<?xml version="1.0" encoding="UTF-8"?>
<map version="1.10" tiledversion="1.12.1" orientation="orthogonal" renderorder="right-down" width="30" height="20" tilewidth="128" tileheight="128" infinite="1" nextlayerid="8" nextobjectid="164">
 <editorsettings>
  <export target="../tilemap.tmj" format="json"/>
 </editorsettings>
 <tileset firstgid="1" name="tileset" tilewidth="128" tileheight="128" tilecount="64" columns="8">
  <image source="../visual/tileset.png" width="1024" height="1024"/>
 </tileset>
 <layer id="1" name="Ground" width="30" height="20" locked="1">
  <data encoding="csv">
   <chunk x="-48" y="-48" width="16" height="16">
0,0,0,0,0,0,0,0,0,0,0,0,0,0,0,0,
0,0,0,0,0,0,0,0,0,0,0,0,0,0,0,0,
0,0,17,17,17,17,17,17,17,17,17,17,17,17,17,17,
0,0,17,17,17,17,17,17,17,17,17,17,17,17,17,17,
0,0,17,17,17,17,17,17,17,17,17,17,17,17,17,17,
0,0,17,17,17,17,17,17,17,17,17,17,17,17,17,17,
0,0,17,17,17,17,17,17,17,17,17,17,17,17,17,17,
0,0,17,17,17,17,17,17,17,17,17,17,17,17,17,17,
0,0,17,17,17,17,17,17,17,17,17,17,17,17,17,17,
0,0,17,17,17,17,17,17,17,17,17,17,17,17,17,17,
0,0,17,17,17,17,17,17,17,17,17,17,17,17,17,17,
0,0,17,17,17,17,17,17,17,17,17,17,17,17,17,17,
0,0,17,17,17,17,17,17,17,17,17,17,17,17,17,17,
0,0,17,17,17,17,17,17,17,17,17,17,17,17,17,17,
0,0,17,17,17,17,17,17,17,17,17,17,17,17,17,17,
0,0,17,17,17,17,17,17,17,17,17,17,17,17,17,17
</chunk>
   <chunk x="-32" y="-48" width="16" height="16">
0,0,0,0,0,0,0,0,0,0,0,0,0,0,0,0,
0,0,0,0,0,0,0,0,0,0,0,0,0,0,0,0,
17,17,17,17,17,17,17,17,17,17,17,17,17,17,17,17,
17,17,17,17,17,17,17,17,17,17,17,17,17,17,17,17,
17,17,17,17,17,17,17,17,17,17,17,17,17,17,17,17,
17,17,17,17,17,17,17,17,17,17,17,17,17,17,17,17,
17,17,17,17,17,17,17,17,17,17,17,17,17,17,17,17,
17,17,17,17,17,17,17,17,17,17,17,17,17,17,17,17,
17,17,17,17,17,17,17,17,17,17,17,17,17,17,17,17,
17,17,17,17,17,17,17,17,17,17,17,17,17,17,17,17,
17,17,17,17,17,17,17,17,17,17,17,17,17,17,17,17,
17,17,17,17,17,17,17,17,17,17,17,17,17,17,17,17,
17,17,17,17,17,17,17,17,17,17,17,17,17,17,17,17,
17,17,17,17,17,17,17,17,17,17,17,17,17,17,17,17,
17,17,17,17,17,17,17,17,17,17,17,17,17,17,17,17,
17,17,17,17,17,17,17,17,17,17,17,17,17,17,17,17
</chunk>
   <chunk x="-16" y="-48" width="16" height="16">
0,0,0,0,0,0,0,0,0,0,0,0,0,0,0,0,
0,0,0,0,0,0,0,0,0,0,0,0,0,0,0,0,
17,17,17,17,17,17,17,17,17,17,17,17,17,17,17,17,
17,17,17,17,17,17,17,17,17,17,17,17,17,17,17,17,
17,17,17,17,17,17,17,17,17,17,17,17,17,17,17,17,
17,17,17,17,17,17,17,17,17,17,17,17,17,17,17,17,
17,17,17,17,17,17,17,17,17,17,17,17,17,17,17,17,
17,17,17,17,17,17,17,17,17,17,17,17,17,17,17,17,
17,17,17,17,17,17,17,17,17,17,17,17,17,17,17,17,
17,17,17,17,17,17,17,17,17,17,17,17,17,17,17,17,
17,17,17,17,17,17,17,17,17,17,17,17,17,17,17,17,
17,17,17,17,17,17,17,17,17,17,17,17,17,17,17,17,
17,17,17,17,17,17,17,17,17,17,17,17,17,17,17,17,
17,17,17,17,17,17,17,17,17,17,17,17,17,17,17,17,
17,17,17,17,17,17,17,17,17,17,17,17,17,17,17,17,
17,17,17,17,17,17,17,17,17,17,17,17,17,17,17,17
</chunk>
   <chunk x="0" y="-48" width="16" height="16">
0,0,0,0,0,0,0,0,0,0,0,0,0,0,0,0,
0,0,0,0,0,0,0,0,0,0,0,0,0,0,0,0,
17,17,17,17,17,17,17,17,17,17,17,17,17,17,17,17,
17,17,17,17,17,17,17,17,17,17,17,17,17,17,17,17,
17,17,17,17,17,17,17,17,17,17,17,17,17,17,17,17,
17,17,17,17,17,17,17,17,17,17,17,17,17,17,17,17,
17,17,17,17,17,17,17,17,17,17,17,17,17,17,17,17,
17,17,17,17,17,17,17,17,17,17,17,17,17,17,17,17,
17,17,17,17,17,17,17,17,17,17,17,17,17,17,17,17,
17,17,17,17,17,17,17,17,17,17,17,17,17,17,17,17,
17,17,17,17,17,17,17,17,17,17,17,17,17,17,17,17,
17,17,17,17,17,17,17,17,17,17,17,17,17,17,17,17,
17,17,17,17,17,17,17,17,17,17,17,17,17,17,17,17,
17,17,17,17,17,17,17,17,17,17,17,17,17,17,17,17,
17,17,17,17,17,17,17,17,17,17,17,17,17,17,17,17,
17,17,17,17,17,17,17,17,17,17,17,17,17,17,17,17
</chunk>
   <chunk x="16" y="-48" width="16" height="16">
0,0,0,0,0,0,0,0,0,0,0,0,0,0,0,0,
0,0,0,0,0,0,0,0,0,0,0,0,0,0,0,0,
17,17,17,17,17,17,17,17,17,17,17,17,17,17,17,17,
17,17,17,17,17,17,17,17,17,17,17,17,17,17,17,17,
17,17,17,17,17,17,17,17,17,17,17,17,17,17,17,17,
17,17,17,17,17,17,17,17,17,17,17,17,17,17,17,17,
17,17,17,17,17,17,17,17,17,17,17,17,17,17,17,17,
17,17,17,17,17,17,17,17,17,17,17,17,17,17,17,17,
17,17,17,17,17,17,17,17,17,17,17,17,17,17,17,17,
17,17,17,17,17,17,17,17,17,17,17,17,17,17,17,17,
17,17,17,17,17,17,17,17,17,17,17,17,17,17,17,17,
17,17,17,17,17,17,17,17,17,17,17,17,17,17,17,17,
17,17,17,17,17,17,17,17,17,17,17,17,17,17,17,17,
17,17,17,17,17,17,17,17,17,17,17,17,17,17,17,17,
17,17,17,17,17,17,17,17,17,17,17,17,17,17,17,17,
17,17,17,17,17,17,17,17,17,17,17,17,17,17,17,17
</chunk>
   <chunk x="32" y="-48" width="16" height="16">
0,0,0,0,0,0,0,0,0,0,0,0,0,0,0,0,
0,0,0,0,0,0,0,0,0,0,0,0,0,0,0,0,
17,17,17,17,17,17,17,17,17,17,17,17,17,17,17,17,
17,17,17,17,17,17,17,17,17,17,17,17,17,17,17,17,
17,17,17,17,17,17,17,17,17,17,17,17,17,17,17,17,
17,17,17,17,17,17,17,17,17,17,17,17,17,17,17,17,
17,17,17,17,17,17,17,17,17,17,17,17,17,17,17,17,
17,17,17,17,17,17,17,17,17,17,17,17,17,17,17,17,
17,17,17,17,17,17,17,17,17,17,17,17,17,17,17,17,
17,17,17,17,17,17,17,17,17,17,17,17,17,17,17,17,
17,17,17,17,17,17,17,17,17,17,17,17,17,17,17,17,
17,17,17,17,17,17,17,17,17,17,17,17,17,17,17,17,
17,17,17,17,17,17,17,17,17,17,17,17,17,17,17,17,
17,17,17,17,17,17,17,17,17,17,17,17,17,17,17,17,
17,17,17,17,17,17,17,17,17,17,17,17,17,17,17,17,
17,17,17,17,17,17,17,17,17,17,17,17,17,17,17,17
</chunk>
   <chunk x="48" y="-48" width="16" height="16">
0,0,0,0,0,0,0,0,0,0,0,0,0,0,0,0,
0,0,0,0,0,0,0,0,0,0,0,0,0,0,0,0,
17,17,17,17,17,17,17,17,17,17,17,17,17,17,17,17,
17,17,17,17,17,17,17,17,17,17,17,17,17,17,17,17,
17,17,17,17,17,17,17,17,17,17,17,17,17,17,17,17,
17,17,17,17,17,17,17,17,17,17,17,17,17,17,17,17,
17,17,17,17,17,17,17,17,17,17,17,17,17,17,17,17,
17,17,17,17,17,17,17,17,17,17,17,17,17,17,17,17,
17,17,17,17,17,17,17,17,17,17,17,17,17,17,17,17,
17,17,17,17,17,17,17,17,17,17,17,17,17,17,17,17,
17,17,17,17,17,17,17,17,17,17,17,17,17,17,17,17,
17,17,17,17,17,17,17,17,17,17,17,17,17,17,17,17,
17,17,17,17,17,17,17,17,17,17,17,17,17,17,17,17,
17,17,17,17,17,17,17,17,17,17,17,17,17,17,17,17,
17,17,17,17,17,17,17,17,17,17,17,17,17,17,17,17,
17,17,17,17,17,17,17,17,17,17,17,17,17,17,17,17
</chunk>
   <chunk x="64" y="-48" width="16" height="16">
0,0,0,0,0,0,0,0,0,0,0,0,0,0,0,0,
0,0,0,0,0,0,0,0,0,0,0,0,0,0,0,0,
17,17,0,0,0,0,0,0,0,0,0,0,0,0,0,0,
17,17,0,0,0,0,0,0,0,0,0,0,0,0,0,0,
17,17,0,0,0,0,0,0,0,0,0,0,0,0,0,0,
17,17,0,0,0,0,0,0,0,0,0,0,0,0,0,0,
17,17,0,0,0,0,0,0,0,0,0,0,0,0,0,0,
17,17,0,0,0,0,0,0,0,0,0,0,0,0,0,0,
17,17,0,0,0,0,0,0,0,0,0,0,0,0,0,0,
17,17,0,0,0,0,0,0,0,0,0,0,0,0,0,0,
17,17,0,0,0,0,0,0,0,0,0,0,0,0,0,0,
17,17,0,0,0,0,0,0,0,0,0,0,0,0,0,0,
17,17,0,0,0,0,0,0,0,0,0,0,0,0,0,0,
17,17,0,0,0,0,0,0,0,0,0,0,0,0,0,0,
17,17,0,0,0,0,0,0,0,0,0,0,0,0,0,0,
17,17,0,0,0,0,0,0,0,0,0,0,0,0,0,0
</chunk>
   <chunk x="-48" y="-32" width="16" height="16">
0,0,17,17,17,17,17,17,17,17,17,17,17,17,17,17,
0,0,17,17,17,17,17,17,17,17,17,17,17,17,17,17,
0,0,17,17,17,17,17,17,17,17,17,17,17,17,17,17,
0,0,17,17,17,17,17,17,17,17,17,17,17,17,17,17,
0,0,17,17,17,17,17,17,17,17,17,17,17,17,17,17,
0,0,17,17,17,17,17,17,17,17,17,17,17,17,17,17,
0,0,17,17,17,17,17,17,17,17,17,17,17,17,17,17,
0,0,17,17,17,17,17,17,17,17,17,17,17,17,17,17,
0,0,17,17,17,17,17,17,17,17,17,17,17,17,17,17,
0,0,17,17,17,17,17,17,17,17,17,17,17,17,17,17,
0,0,17,17,17,17,17,17,17,17,17,17,17,17,17,17,
0,0,17,17,17,17,17,17,17,17,17,17,17,17,17,17,
0,0,17,17,17,17,17,17,17,17,17,17,17,17,17,17,
0,0,17,17,17,17,17,17,17,17,17,17,17,17,17,17,
0,0,17,17,17,17,17,17,17,17,17,17,17,17,17,17,
0,0,17,17,17,17,17,17,17,17,17,17,17,17,17,17
</chunk>
   <chunk x="-32" y="-32" width="16" height="16">
17,17,17,17,17,17,17,17,17,17,17,17,17,17,17,17,
17,17,17,17,17,17,17,17,17,17,17,17,17,17,17,17,
17,17,17,17,17,17,17,17,17,17,17,17,17,17,17,17,
17,17,17,17,17,17,17,17,17,17,17,17,17,17,17,17,
17,17,17,17,17,17,17,17,17,17,17,17,17,17,17,17,
17,17,17,17,17,17,17,17,17,17,17,17,20,25,25,25,
17,17,17,17,17,17,17,17,17,17,17,17,26,17,17,17,
17,17,17,17,17,17,17,17,17,17,17,17,26,17,17,17,
17,17,17,17,17,17,17,17,17,17,17,17,26,17,17,17,
17,17,17,17,17,17,17,17,17,17,17,17,26,17,17,17,
17,17,17,17,17,17,17,17,17,17,17,17,26,17,17,17,
17,17,17,17,17,17,17,17,17,17,17,17,26,17,17,17,
17,17,17,17,17,17,17,17,17,17,17,17,26,17,17,17,
17,17,17,17,17,17,17,17,17,17,17,17,26,17,17,17,
17,17,17,17,17,17,17,17,17,17,17,17,26,17,17,17,
17,17,17,17,17,17,17,17,17,17,17,17,26,17,17,17
</chunk>
   <chunk x="-16" y="-32" width="16" height="16">
17,17,17,17,17,17,17,17,17,17,17,17,17,17,17,17,
17,17,17,17,17,17,17,17,17,17,17,17,17,17,17,17,
17,17,17,17,17,17,17,17,17,17,17,17,17,17,17,17,
17,17,17,17,17,17,17,17,17,17,17,17,17,17,17,17,
17,17,17,17,17,17,17,17,17,17,17,17,17,17,17,17,
25,25,25,25,25,25,25,25,25,25,25,29,25,25,25,25,
17,17,17,17,17,17,17,17,17,17,17,26,17,17,17,17,
17,17,17,17,17,17,17,17,17,17,17,26,17,17,17,17,
17,17,17,17,17,17,17,17,17,17,17,26,17,17,17,17,
17,17,17,17,17,17,17,17,17,17,17,26,17,17,17,17,
17,17,17,17,17,17,17,17,17,17,17,26,17,17,17,17,
17,17,17,17,17,17,17,17,17,17,17,26,17,17,17,17,
17,17,17,17,17,17,17,17,17,17,17,26,17,17,17,17,
17,17,17,17,17,17,17,17,17,17,17,26,17,17,17,17,
17,17,17,17,17,17,17,17,17,17,17,26,17,17,17,17,
17,17,17,17,17,17,17,17,17,17,17,26,17,17,17,17
</chunk>
   <chunk x="0" y="-32" width="16" height="16">
17,17,17,17,17,17,17,17,17,17,17,17,17,17,17,17,
17,17,17,17,17,17,17,17,17,17,17,17,17,17,17,17,
17,17,17,17,17,17,17,17,17,17,17,17,17,17,17,17,
17,17,17,17,17,17,17,17,17,17,17,17,17,17,17,17,
17,17,17,17,17,17,17,17,17,17,17,17,17,17,17,17,
25,25,25,25,25,25,25,25,25,25,25,25,25,25,25,25,
17,17,17,17,17,17,17,17,17,17,17,17,17,17,17,17,
17,17,17,17,17,17,17,17,17,17,17,17,17,17,17,17,
17,17,17,17,17,17,17,17,17,17,17,17,17,17,17,17,
17,17,17,17,17,17,17,17,17,17,17,17,17,17,17,17,
17,17,17,17,17,17,17,17,17,17,17,17,17,17,17,17,
17,17,17,17,17,17,17,17,17,17,17,17,17,17,17,17,
17,17,17,17,17,17,17,17,17,17,17,17,17,17,17,17,
17,17,17,17,17,17,17,17,17,17,41,41,41,41,41,41,
17,17,17,17,17,17,17,17,18,39,43,43,43,43,43,43,
17,17,17,17,17,17,17,17,39,43,43,43,43,43,43,43
</chunk>
   <chunk x="16" y="-32" width="16" height="16">
17,17,17,17,17,17,17,17,17,17,17,17,17,17,17,17,
17,17,17,17,17,17,17,17,17,17,17,17,17,17,17,17,
17,17,17,17,17,17,17,17,17,17,17,17,17,17,17,17,
17,17,17,17,17,17,17,17,17,17,17,17,17,17,17,17,
17,17,17,17,17,17,17,17,17,17,17,17,17,17,17,17,
25,25,25,25,25,25,25,25,25,25,25,25,25,25,25,29,
17,17,17,17,17,17,17,17,17,17,17,17,17,17,17,26,
17,17,17,17,17,17,17,17,17,17,17,17,17,17,17,26,
17,17,17,17,17,17,17,17,17,17,17,17,17,17,17,26,
17,17,17,17,17,17,17,17,17,17,17,17,17,17,17,26,
17,17,17,17,17,17,17,17,17,17,17,17,17,17,17,26,
17,17,17,17,17,17,17,17,17,17,17,17,18,41,41,36,
17,17,17,17,17,17,17,17,17,41,41,41,41,43,43,52,
41,41,41,41,41,41,41,41,41,43,43,43,43,43,43,52,
43,43,43,43,43,43,43,43,43,43,43,43,43,43,43,52,
43,43,43,43,43,43,43,43,43,43,43,43,43,43,43,52
</chunk>
   <chunk x="32" y="-32" width="16" height="16">
17,17,17,17,17,17,17,17,17,17,17,17,17,17,17,17,
17,17,17,17,17,17,17,17,17,17,17,17,17,17,17,17,
17,17,17,17,17,17,17,17,17,17,17,17,17,17,17,17,
17,17,17,17,17,17,17,17,17,17,17,17,17,17,17,17,
17,17,17,17,17,17,17,17,17,17,17,17,17,17,17,17,
25,25,25,25,25,25,25,25,25,25,25,25,25,25,25,25,
17,17,17,17,17,17,17,17,17,17,17,17,17,17,17,17,
17,17,17,17,17,17,17,17,17,17,17,17,17,17,17,17,
17,17,17,17,17,17,17,17,17,17,17,17,17,17,17,17,
17,17,17,17,17,17,17,17,17,17,17,17,17,17,17,17,
17,17,17,17,17,17,17,17,17,17,17,17,17,17,17,18,
41,41,41,41,41,41,41,41,41,17,17,17,17,17,41,41,
43,43,43,43,43,43,43,43,43,41,41,41,41,41,43,43,
43,43,43,43,43,43,43,43,43,43,43,43,43,43,43,43,
43,43,43,43,43,43,43,43,43,43,43,43,43,43,43,43,
43,43,43,43,43,43,43,43,43,43,43,43,43,43,43,43
</chunk>
   <chunk x="48" y="-32" width="16" height="16">
17,17,17,17,17,17,17,17,17,17,17,17,17,17,17,41,
17,17,17,17,17,17,17,17,17,17,17,17,17,41,41,43,
17,17,17,17,17,17,17,17,17,41,41,41,41,43,43,43,
17,17,17,17,17,17,17,17,39,43,43,43,43,43,43,43,
17,17,17,17,17,17,18,39,43,43,43,43,43,43,43,43,
25,25,25,25,25,25,39,43,43,43,43,43,43,43,43,43,
17,17,17,17,17,17,39,43,43,43,43,43,43,43,43,43,
17,17,17,17,17,41,43,43,43,43,43,43,43,43,43,43,
17,17,18,41,41,43,43,43,43,43,43,43,43,43,43,43,
17,41,41,43,43,43,43,43,43,43,43,43,43,43,43,43,
41,43,43,43,43,43,43,43,43,43,43,43,43,43,43,43,
43,43,43,43,43,43,43,43,43,43,43,43,43,43,43,43,
43,43,43,43,43,43,43,43,43,43,43,43,43,43,43,43,
43,43,43,43,43,43,43,43,43,43,43,43,43,43,43,43,
43,43,43,43,43,43,43,43,43,43,43,43,43,43,43,43,
43,43,43,43,43,43,43,43,43,43,43,43,43,43,43,43
</chunk>
   <chunk x="64" y="-32" width="16" height="16">
41,41,0,0,0,0,0,0,0,0,0,0,0,0,0,0,
43,43,0,0,0,0,0,0,0,0,0,0,0,0,0,0,
43,43,0,0,0,0,0,0,0,0,0,0,0,0,0,0,
43,43,0,0,0,0,0,0,0,0,0,0,0,0,0,0,
43,43,0,0,0,0,0,0,0,0,0,0,0,0,0,0,
43,43,0,0,0,0,0,0,0,0,0,0,0,0,0,0,
43,43,0,0,0,0,0,0,0,0,0,0,0,0,0,0,
43,43,0,0,0,0,0,0,0,0,0,0,0,0,0,0,
43,43,0,0,0,0,0,0,0,0,0,0,0,0,0,0,
43,43,0,0,0,0,0,0,0,0,0,0,0,0,0,0,
43,43,0,0,0,0,0,0,0,0,0,0,0,0,0,0,
43,43,0,0,0,0,0,0,0,0,0,0,0,0,0,0,
43,43,0,0,0,0,0,0,0,0,0,0,0,0,0,0,
43,43,0,0,0,0,0,0,0,0,0,0,0,0,0,0,
43,43,0,0,0,0,0,0,0,0,0,0,0,0,0,0,
43,43,0,0,0,0,0,0,0,0,0,0,0,0,0,0
</chunk>
   <chunk x="-48" y="-16" width="16" height="16">
0,0,17,17,17,17,17,17,17,17,17,17,17,17,17,17,
0,0,17,17,17,17,17,17,17,17,17,17,17,17,17,17,
0,0,17,17,17,17,17,17,17,17,17,17,17,17,17,17,
0,0,17,17,17,17,17,17,17,17,17,17,17,17,17,17,
0,0,17,17,17,17,17,17,17,17,17,17,17,17,17,17,
0,0,17,17,17,17,17,17,17,17,17,17,17,17,17,17,
0,0,17,17,17,17,17,17,17,17,17,17,17,17,17,17,
0,0,17,17,17,17,17,17,17,17,17,17,17,17,17,17,
0,0,17,17,17,17,17,17,17,17,17,17,17,17,17,17,
0,0,17,17,17,17,17,17,17,17,17,17,17,17,17,17,
0,0,17,17,17,17,17,17,17,17,17,17,17,17,17,17,
0,0,17,17,17,17,17,17,17,17,17,17,17,17,17,17,
0,0,17,17,17,17,17,17,17,17,17,17,17,17,17,17,
0,0,17,17,17,17,17,17,17,17,17,17,17,17,17,17,
0,0,17,17,17,17,17,17,17,17,17,17,17,17,17,17,
0,0,17,17,17,17,17,17,17,17,17,17,17,17,17,17
</chunk>
   <chunk x="-32" y="-16" width="16" height="16">
17,17,17,17,17,17,17,17,17,17,17,17,26,17,17,17,
17,17,17,17,17,17,17,17,17,17,17,17,26,17,17,17,
17,17,17,17,17,17,17,17,17,17,17,17,26,17,17,17,
17,17,17,17,17,17,17,17,17,17,17,17,26,17,17,17,
17,17,17,17,17,17,17,17,17,17,17,17,26,17,17,17,
17,17,17,17,17,17,17,17,17,17,17,17,26,17,17,17,
17,17,17,17,17,17,17,17,17,17,17,17,26,17,17,17,
17,17,17,17,17,17,17,17,17,17,17,17,26,17,17,17,
17,17,17,17,17,17,17,17,17,17,17,17,26,17,17,17,
17,17,17,17,17,17,17,17,17,17,17,17,26,17,17,17,
17,17,17,17,17,17,17,17,17,17,17,17,26,17,17,17,
17,17,17,17,17,17,17,17,17,17,17,17,26,17,17,17,
17,17,17,17,17,17,17,17,17,17,17,17,26,17,17,17,
17,17,17,17,17,17,17,17,17,17,17,17,26,17,17,17,
17,17,17,17,17,17,17,17,17,17,17,17,26,17,17,17,
17,17,17,17,17,17,17,17,17,17,17,17,26,17,17,17
</chunk>
   <chunk x="-16" y="-16" width="16" height="16">
17,17,17,17,17,17,17,17,17,17,17,26,17,17,17,17,
17,17,17,17,17,17,17,17,17,17,17,26,17,17,17,17,
17,17,17,17,17,17,17,17,17,17,17,26,17,17,17,17,
17,17,17,17,17,17,17,17,17,17,17,26,17,17,17,17,
17,17,17,17,17,17,17,17,17,17,17,26,17,17,17,17,
17,17,17,17,17,17,17,17,17,17,17,26,17,17,17,17,
17,17,17,17,17,17,17,17,17,17,17,22,25,25,25,25,
17,17,17,17,17,17,17,17,17,17,17,17,17,17,17,17,
17,17,17,17,17,17,17,17,17,17,17,17,17,17,17,17,
17,17,17,17,17,17,17,17,17,17,17,17,17,17,17,17,
17,17,17,17,17,17,17,17,17,17,17,17,17,17,17,17,
17,17,17,17,17,17,17,17,17,17,17,17,17,17,17,17,
17,17,17,17,17,17,17,17,17,17,17,17,17,17,17,17,
17,17,17,17,17,17,17,17,17,17,17,17,17,17,17,17,
17,17,17,17,17,17,17,17,17,17,17,17,17,17,17,17,
17,17,17,17,17,17,17,17,17,17,17,17,17,17,17,17
</chunk>
   <chunk x="0" y="-16" width="16" height="16">
17,17,17,17,17,17,17,39,43,43,43,43,43,43,43,43,
17,17,17,17,17,17,17,39,43,43,43,43,43,43,43,43,
17,17,17,17,17,17,17,39,43,43,43,43,43,43,43,43,
17,17,17,17,17,17,17,17,39,43,43,43,43,43,43,43,
17,17,17,17,17,17,17,17,18,39,43,43,43,43,43,43,
17,17,17,17,17,17,17,17,17,39,43,43,43,43,43,43,
25,25,25,25,25,25,25,25,25,25,32,51,51,51,51,51,
17,17,17,17,17,17,17,17,18,18,39,44,44,44,44,44,
17,17,17,17,17,17,17,17,18,18,39,44,44,44,44,44,
17,17,17,17,17,17,17,17,18,18,18,39,44,44,44,44,
17,17,17,17,17,17,17,17,18,18,18,39,44,44,44,44,
17,17,17,17,17,17,17,17,18,18,18,18,39,44,44,44,
17,17,17,17,17,17,17,17,18,18,18,18,39,44,44,44,
17,17,17,17,17,17,17,17,18,18,18,18,39,44,44,44,
17,17,17,17,17,17,17,17,18,18,18,39,44,44,44,44,
17,17,17,17,17,17,17,17,17,18,18,39,44,44,44,44
</chunk>
   <chunk x="16" y="-16" width="16" height="16">
43,43,43,43,43,43,43,43,43,43,43,43,43,43,43,52,
43,43,43,43,43,43,43,43,43,43,43,43,43,43,43,52,
43,43,43,43,43,43,43,43,43,43,43,43,43,43,43,52,
43,43,43,43,43,43,43,43,43,43,43,43,43,43,43,52,
43,43,43,43,43,43,43,43,43,43,43,43,43,43,43,52,
43,43,43,43,43,43,43,43,43,43,43,43,43,43,43,52,
51,51,51,51,51,51,51,51,51,51,51,51,51,51,51,49,
44,44,44,44,44,44,44,44,44,44,44,44,44,44,44,52,
44,44,44,44,44,44,44,44,44,44,44,44,44,44,44,52,
44,44,44,44,44,44,44,44,44,44,44,44,44,44,44,52,
44,44,44,44,44,44,44,44,44,44,44,44,44,44,44,52,
44,44,44,44,44,44,44,44,44,44,44,44,44,44,44,52,
44,44,44,44,44,44,44,44,44,44,44,44,44,44,44,52,
44,44,44,44,44,44,44,44,44,44,44,44,44,44,44,52,
44,44,44,44,44,44,44,44,44,44,44,44,44,44,44,52,
44,44,44,44,44,44,44,44,44,44,44,44,44,44,44,52
</chunk>
   <chunk x="32" y="-16" width="16" height="16">
43,43,43,43,43,43,43,43,43,43,43,43,43,43,43,43,
43,43,43,43,43,43,43,43,52,43,43,43,43,43,43,43,
43,43,43,43,43,43,43,43,52,43,43,43,43,43,43,43,
43,43,43,43,43,43,43,43,52,43,43,43,43,43,43,43,
43,43,43,43,43,43,43,43,52,43,43,43,43,43,43,43,
43,43,43,43,43,43,43,43,52,43,43,43,43,43,43,43,
51,51,51,51,51,51,51,51,47,43,43,43,43,43,43,43,
44,43,43,43,43,43,43,43,43,43,43,43,43,43,43,43,
44,43,43,43,43,43,43,43,43,43,43,43,43,43,43,43,
44,43,43,43,43,43,43,43,43,43,43,43,43,43,43,43,
44,43,43,43,43,43,43,43,43,43,43,43,43,43,43,43,
44,43,43,43,43,43,43,43,43,43,43,43,43,43,43,43,
44,43,43,43,43,43,43,43,43,43,43,43,43,43,43,43,
44,43,43,43,43,43,43,43,43,43,43,43,43,43,43,43,
44,43,43,43,43,43,43,43,43,43,43,43,43,43,43,43,
44,43,43,43,43,43,43,43,43,43,43,43,43,43,43,43
</chunk>
   <chunk x="48" y="-16" width="16" height="16">
43,43,43,43,43,43,43,43,43,43,43,43,43,43,43,43,
43,43,43,43,43,43,43,43,43,43,43,43,43,43,43,43,
43,43,43,43,43,43,43,43,43,43,43,43,43,43,43,43,
43,43,43,43,43,43,43,43,43,43,43,43,43,43,43,43,
43,43,43,43,43,43,43,43,43,43,43,43,43,43,43,43,
43,43,43,43,43,43,43,43,43,43,43,43,43,43,43,43,
43,43,43,43,43,43,43,43,43,43,43,43,43,43,43,43,
43,43,43,43,43,43,43,43,43,43,43,43,43,43,43,43,
43,43,43,43,43,43,43,43,43,43,43,43,43,43,43,43,
43,43,43,43,43,43,43,43,43,43,43,43,43,43,43,43,
43,43,43,43,43,43,43,43,43,43,43,43,43,43,43,43,
43,43,43,43,43,43,43,43,43,43,43,43,43,43,43,43,
43,43,43,43,43,43,43,43,43,43,43,43,43,43,43,43,
43,43,43,43,43,43,43,43,43,43,43,43,43,43,43,43,
43,43,43,43,43,43,43,43,43,43,43,43,43,43,43,43,
43,43,43,43,43,43,43,43,43,43,43,43,43,43,43,43
</chunk>
   <chunk x="64" y="-16" width="16" height="16">
43,43,0,0,0,0,0,0,0,0,0,0,0,0,0,0,
43,43,0,0,0,0,0,0,0,0,0,0,0,0,0,0,
43,43,0,0,0,0,0,0,0,0,0,0,0,0,0,0,
43,43,0,0,0,0,0,0,0,0,0,0,0,0,0,0,
43,43,0,0,0,0,0,0,0,0,0,0,0,0,0,0,
43,43,0,0,0,0,0,0,0,0,0,0,0,0,0,0,
43,43,0,0,0,0,0,0,0,0,0,0,0,0,0,0,
43,43,0,0,0,0,0,0,0,0,0,0,0,0,0,0,
43,43,0,0,0,0,0,0,0,0,0,0,0,0,0,0,
43,43,0,0,0,0,0,0,0,0,0,0,0,0,0,0,
43,43,0,0,0,0,0,0,0,0,0,0,0,0,0,0,
43,43,0,0,0,0,0,0,0,0,0,0,0,0,0,0,
43,43,0,0,0,0,0,0,0,0,0,0,0,0,0,0,
43,43,0,0,0,0,0,0,0,0,0,0,0,0,0,0,
43,43,0,0,0,0,0,0,0,0,0,0,0,0,0,0,
43,43,0,0,0,0,0,0,0,0,0,0,0,0,0,0
</chunk>
   <chunk x="-48" y="0" width="16" height="16">
0,0,17,17,17,17,17,17,17,17,17,17,17,17,17,17,
0,0,17,17,17,17,17,17,17,17,17,17,17,17,17,17,
0,0,17,17,17,17,17,17,17,17,17,17,17,17,17,17,
0,0,17,17,17,17,17,17,17,17,17,17,17,17,17,17,
0,0,17,17,17,17,17,17,17,17,17,17,17,17,17,17,
0,0,17,17,17,17,17,17,17,17,17,17,17,17,17,17,
0,0,17,17,17,17,17,17,17,17,17,17,17,17,17,17,
0,0,25,25,25,25,25,25,25,25,25,25,25,25,25,25,
0,0,25,25,25,25,25,25,25,25,25,25,25,25,25,25,
0,0,17,17,17,17,17,17,17,17,17,17,17,17,17,17,
0,0,17,17,17,17,17,17,17,17,17,17,17,17,17,17,
0,0,17,17,17,17,17,17,17,17,17,17,17,17,17,17,
0,0,17,17,17,17,17,17,17,17,17,17,17,17,17,17,
0,0,17,17,17,17,17,17,17,17,17,17,17,17,17,17,
0,0,17,17,17,17,17,17,17,17,17,17,17,17,17,17,
0,0,17,17,17,17,17,17,17,17,17,17,17,17,17,17
</chunk>
   <chunk x="-32" y="0" width="16" height="16">
17,17,17,17,17,17,17,17,17,17,17,17,26,17,17,17,
17,17,17,17,17,17,17,17,17,17,17,17,26,17,17,17,
17,17,17,17,17,17,17,17,17,17,17,17,26,17,17,17,
17,17,17,17,17,17,17,17,17,17,17,17,26,17,17,17,
17,17,17,17,17,17,17,17,17,17,17,17,26,17,17,17,
17,17,17,17,17,17,17,17,17,17,17,17,26,17,17,17,
17,17,17,17,17,17,17,17,17,17,17,17,26,17,17,17,
25,25,25,25,25,25,25,25,25,25,25,25,28,25,25,25,
25,25,25,25,25,25,25,25,25,25,25,25,25,25,25,25,
17,17,17,17,17,17,17,17,17,17,17,17,17,17,17,17,
17,17,17,17,17,17,17,17,17,17,17,17,17,17,17,17,
17,17,17,17,17,17,17,17,17,17,17,17,17,17,17,17,
17,17,17,17,17,17,17,17,17,17,17,17,17,17,17,17,
17,17,17,17,17,17,17,17,17,17,17,17,17,17,17,17,
17,17,17,17,17,17,17,17,17,17,17,17,17,17,17,17,
17,17,17,17,17,17,17,17,17,17,17,17,17,17,17,17
</chunk>
   <chunk x="-16" y="0" width="16" height="16">
17,17,17,17,17,17,17,17,17,17,17,17,17,17,17,17,
17,17,17,17,17,17,17,17,17,17,17,17,17,17,17,17,
17,17,17,17,17,17,17,17,17,17,17,17,17,17,17,17,
17,17,17,17,17,17,17,17,17,17,17,17,17,17,17,17,
17,17,17,17,17,17,17,17,17,17,17,17,17,17,17,17,
17,17,17,17,17,17,17,17,17,17,17,17,17,17,17,17,
17,17,17,17,17,17,17,17,17,17,17,17,17,17,17,17,
25,25,25,25,25,25,25,25,25,25,25,25,25,25,25,25,
25,25,25,25,25,25,25,25,25,25,25,25,25,25,29,25,
17,17,17,17,17,17,17,17,17,17,17,17,17,17,26,17,
17,17,17,17,17,17,17,17,17,17,17,17,17,17,26,17,
17,17,17,17,17,17,17,17,17,17,17,17,17,17,26,17,
17,17,17,17,17,17,17,17,17,17,17,17,17,17,26,17,
17,17,17,17,17,17,17,17,17,17,17,17,17,17,26,17,
17,17,17,17,17,17,17,17,17,17,17,17,17,17,26,17,
17,17,17,17,17,17,17,17,17,17,17,17,17,17,26,17
</chunk>
   <chunk x="0" y="0" width="16" height="16">
17,17,17,17,17,17,17,18,18,39,44,44,44,44,44,44,
17,17,17,17,17,17,18,18,17,39,44,44,44,44,44,44,
17,17,17,17,17,18,18,17,17,39,44,44,44,44,44,44,
17,17,17,17,17,18,17,17,17,39,44,44,44,44,44,44,
17,17,17,17,17,18,17,17,39,44,44,44,44,44,44,44,
17,17,17,17,17,18,17,17,39,44,44,44,44,44,44,44,
17,17,17,17,17,18,17,17,39,44,44,44,44,44,44,44,
25,25,25,25,25,25,25,25,32,51,51,51,51,51,51,51,
25,25,25,25,25,25,25,25,32,51,51,51,51,51,51,51,
17,17,17,17,17,18,17,17,39,44,44,43,43,43,43,43,
17,17,17,17,17,17,17,17,39,44,44,43,43,43,43,43,
17,17,17,17,17,17,17,17,39,44,44,43,43,43,43,43,
17,17,17,17,17,17,17,17,39,44,44,43,43,43,43,43,
17,17,17,17,17,17,17,17,39,44,44,43,43,43,43,43,
17,17,17,17,17,17,17,39,44,44,44,43,43,43,43,43,
17,17,17,17,17,17,39,44,43,43,43,43,43,43,43,43
</chunk>
   <chunk x="16" y="0" width="16" height="16">
44,44,44,44,44,44,44,44,44,44,44,44,44,44,44,52,
44,44,44,44,44,44,44,44,44,44,44,44,44,44,44,52,
44,44,44,44,44,44,44,44,44,44,44,44,44,44,44,52,
44,44,44,44,44,44,44,44,44,44,44,44,44,44,44,52,
44,44,44,44,44,44,44,44,44,44,44,44,44,44,44,52,
44,44,44,44,44,44,44,44,44,44,44,44,44,44,44,52,
44,44,44,44,44,44,44,44,44,44,44,44,44,44,44,52,
51,51,51,51,51,51,51,51,51,51,51,51,51,51,51,54,
51,51,51,51,51,51,51,51,51,51,51,51,51,51,51,55,
43,43,43,43,43,43,43,43,43,43,43,43,43,43,43,52,
43,43,43,43,43,43,43,43,43,43,43,43,43,43,43,52,
43,43,43,43,43,43,43,43,43,43,43,43,43,43,43,52,
43,43,43,43,43,43,43,43,43,43,43,43,43,43,43,52,
43,43,43,43,43,43,43,43,43,43,43,43,43,43,43,52,
43,43,43,43,43,43,43,43,43,43,43,43,43,43,43,52,
43,43,43,43,43,43,43,43,43,43,43,43,43,43,43,52
</chunk>
   <chunk x="32" y="0" width="16" height="16">
44,43,43,43,43,43,43,43,43,43,43,43,43,43,43,43,
44,43,43,43,43,43,43,43,43,43,43,43,43,43,43,43,
44,43,43,43,43,43,43,43,43,43,43,43,43,43,43,43,
44,43,43,43,43,43,43,43,43,43,43,43,43,43,43,43,
44,43,43,43,43,43,43,43,43,43,43,43,43,43,43,43,
44,43,43,43,43,43,43,43,43,43,43,43,43,43,43,43,
44,43,43,43,43,43,43,43,43,43,43,43,43,43,43,43,
51,51,51,51,51,51,51,51,51,51,51,51,51,51,51,51,
51,51,51,51,51,51,51,51,51,51,51,51,51,51,51,51,
43,43,43,43,43,43,43,43,43,43,43,43,43,43,43,43,
43,43,43,43,43,43,43,43,43,43,43,43,43,43,43,43,
43,43,43,43,43,43,43,43,43,43,43,43,43,43,43,43,
43,43,43,43,43,43,43,43,43,43,43,43,43,43,43,43,
43,43,43,43,43,43,43,43,43,43,43,43,43,43,43,43,
43,43,43,43,43,43,43,43,43,43,43,43,43,43,43,43,
43,43,43,43,43,43,43,43,43,43,43,43,43,43,43,43
</chunk>
   <chunk x="48" y="0" width="16" height="16">
43,43,43,43,43,43,43,43,43,43,43,43,43,43,43,43,
43,43,43,43,43,43,43,43,43,43,43,43,43,43,43,43,
43,43,43,43,43,43,43,43,43,43,43,43,43,43,43,43,
43,43,43,43,43,43,43,43,43,43,43,43,43,43,43,43,
43,43,43,43,43,43,43,43,43,43,43,43,43,43,43,43,
43,43,43,43,43,43,43,43,43,43,43,43,43,43,43,43,
43,43,43,43,43,43,43,43,43,43,43,43,43,43,43,43,
51,51,51,51,51,51,51,51,51,51,51,51,51,51,51,51,
51,51,51,51,51,51,51,51,51,51,51,51,51,51,51,51,
43,43,43,43,43,43,43,43,43,43,43,43,43,43,43,43,
43,43,43,43,43,43,43,43,43,43,43,43,43,43,43,43,
43,43,43,43,43,43,43,43,43,43,43,43,43,43,43,43,
43,43,43,43,43,43,43,43,43,43,43,43,43,43,43,43,
43,43,43,43,43,43,43,43,43,43,43,43,43,43,43,43,
43,43,43,43,43,43,43,43,43,43,43,43,43,43,43,43,
43,43,43,43,43,43,43,43,43,43,43,43,43,43,43,43
</chunk>
   <chunk x="64" y="0" width="16" height="16">
43,43,0,0,0,0,0,0,0,0,0,0,0,0,0,0,
43,43,0,0,0,0,0,0,0,0,0,0,0,0,0,0,
43,43,0,0,0,0,0,0,0,0,0,0,0,0,0,0,
43,43,0,0,0,0,0,0,0,0,0,0,0,0,0,0,
43,43,0,0,0,0,0,0,0,0,0,0,0,0,0,0,
43,43,0,0,0,0,0,0,0,0,0,0,0,0,0,0,
43,43,0,0,0,0,0,0,0,0,0,0,0,0,0,0,
51,51,0,0,0,0,0,0,0,0,0,0,0,0,0,0,
51,51,0,0,0,0,0,0,0,0,0,0,0,0,0,0,
43,43,0,0,0,0,0,0,0,0,0,0,0,0,0,0,
43,43,0,0,0,0,0,0,0,0,0,0,0,0,0,0,
43,43,0,0,0,0,0,0,0,0,0,0,0,0,0,0,
43,43,0,0,0,0,0,0,0,0,0,0,0,0,0,0,
43,43,0,0,0,0,0,0,0,0,0,0,0,0,0,0,
43,43,0,0,0,0,0,0,0,0,0,0,0,0,0,0,
43,43,0,0,0,0,0,0,0,0,0,0,0,0,0,0
</chunk>
   <chunk x="-48" y="16" width="16" height="16">
0,0,17,17,17,17,17,17,17,17,17,17,17,17,17,17,
0,0,17,17,17,17,17,17,17,17,17,17,17,17,17,17,
0,0,17,17,17,17,17,17,17,17,17,17,17,17,17,17,
0,0,17,17,17,17,17,17,17,17,17,17,17,17,17,17,
0,0,17,17,17,17,17,17,17,17,17,17,17,17,17,17,
0,0,17,17,17,17,17,17,17,17,17,17,17,17,17,17,
0,0,17,17,17,17,17,17,17,17,17,17,17,17,17,17,
0,0,17,17,17,17,17,17,17,17,17,17,17,17,17,17,
0,0,17,17,17,17,17,17,17,17,17,17,17,17,17,17,
0,0,17,17,17,17,17,17,17,17,17,17,17,17,17,17,
0,0,17,17,17,17,17,17,17,17,17,17,17,17,17,17,
0,0,17,17,17,17,17,17,17,17,17,17,17,17,17,17,
0,0,17,17,17,17,17,17,17,17,17,17,17,17,17,17,
0,0,17,17,17,17,17,17,17,17,17,17,17,17,17,17,
0,0,17,17,17,17,17,17,17,17,17,17,17,17,17,17,
0,0,17,17,17,17,17,17,17,17,17,17,17,17,17,17
</chunk>
   <chunk x="-32" y="16" width="16" height="16">
17,17,17,17,25,25,25,25,25,25,25,25,25,25,25,25,
17,17,17,17,17,17,17,17,17,17,17,17,17,17,17,17,
17,17,17,17,17,17,17,17,17,17,17,17,17,17,17,17,
17,17,17,17,17,17,17,17,17,17,17,17,17,17,17,17,
17,17,17,17,17,17,17,17,17,17,17,17,17,17,17,17,
17,17,17,17,17,17,17,17,17,17,17,17,17,17,17,17,
17,17,17,17,17,17,17,17,17,17,17,17,17,17,17,17,
17,17,17,17,17,17,17,17,17,17,17,17,17,17,17,17,
17,17,17,17,17,17,17,17,17,17,17,17,17,17,17,17,
17,17,17,17,17,17,17,17,17,17,17,17,17,17,17,17,
17,17,17,17,17,17,17,17,17,17,17,17,17,17,17,17,
17,17,17,17,17,17,17,17,17,17,17,17,17,17,17,17,
17,17,17,17,17,17,17,17,17,17,17,17,17,17,17,17,
17,17,17,17,17,17,17,17,17,17,17,17,17,17,17,17,
17,17,17,17,17,17,17,17,17,17,17,17,17,17,17,17,
17,17,17,17,17,17,17,17,17,17,17,17,17,17,17,17
</chunk>
   <chunk x="-16" y="16" width="16" height="16">
25,25,25,29,25,25,25,25,25,25,25,25,25,25,21,17,
17,17,17,26,17,17,17,17,17,17,17,17,17,17,17,17,
17,17,17,26,17,17,17,17,17,17,17,17,17,17,17,17,
17,17,17,26,17,17,17,17,17,17,17,17,17,17,17,39,
17,17,17,26,17,17,17,17,17,17,17,17,17,39,44,43,
17,17,17,26,17,17,17,17,17,17,17,39,44,44,44,43,
17,17,17,26,17,17,17,17,17,17,39,44,44,43,43,43,
17,17,17,26,17,17,17,17,17,39,44,43,43,43,43,43,
17,17,17,26,17,17,17,17,17,39,44,43,43,43,43,43,
17,17,17,26,17,17,17,17,17,39,44,44,44,43,43,43,
17,17,17,26,17,17,17,17,39,44,44,44,44,44,44,43,
17,17,17,26,17,17,17,17,39,44,43,43,43,43,43,43,
17,17,17,26,17,17,17,39,44,44,43,43,43,43,43,43,
17,17,17,26,17,17,39,44,44,44,43,43,43,43,43,43,
17,17,17,26,17,17,39,44,44,44,43,43,43,43,43,43,
17,17,17,26,17,17,39,44,43,43,43,43,43,43,43,43
</chunk>
   <chunk x="0" y="16" width="16" height="16">
17,17,17,17,39,44,44,44,43,43,43,43,43,43,43,43,
17,17,39,44,44,44,43,43,43,43,43,43,43,43,43,43,
39,44,44,44,43,43,43,43,43,43,43,43,43,43,43,43,
44,44,43,43,43,43,43,43,43,43,43,43,43,43,43,43,
43,43,43,43,43,43,43,43,43,43,43,43,43,43,43,43,
43,43,43,43,43,43,43,43,43,43,43,43,43,43,43,43,
43,43,43,43,51,51,51,51,51,51,51,51,51,51,51,51,
43,43,43,43,43,43,43,43,43,43,43,43,43,43,43,43,
43,43,43,43,43,43,43,43,43,43,43,43,43,43,43,43,
43,43,43,43,43,43,43,43,43,43,43,43,43,43,43,43,
43,43,43,43,43,43,43,43,43,43,43,43,43,43,43,43,
43,43,43,43,43,43,43,43,43,43,43,43,43,43,43,43,
43,43,43,43,43,43,43,43,43,43,43,43,43,43,43,43,
43,43,43,43,43,43,43,43,43,43,43,43,43,43,43,43,
43,43,43,43,43,43,43,43,43,43,43,43,43,43,43,43,
43,43,43,43,43,43,43,43,43,43,43,43,43,43,43,43
</chunk>
   <chunk x="16" y="16" width="16" height="16">
43,43,43,43,43,43,43,43,43,43,43,43,43,43,43,52,
43,43,43,43,43,43,43,43,43,43,43,43,43,43,43,52,
43,43,43,43,43,43,43,43,43,43,43,43,43,43,43,52,
43,43,43,43,43,43,43,43,43,43,43,43,43,43,43,52,
43,43,43,43,43,43,43,43,43,43,43,43,43,43,43,52,
43,43,43,43,43,43,43,43,43,43,43,43,43,43,43,52,
51,51,51,51,51,51,51,51,51,51,51,51,51,51,51,56,
43,43,43,43,43,43,43,43,43,43,43,43,43,43,43,52,
43,43,43,43,43,43,43,43,43,43,43,43,43,43,43,52,
43,43,43,43,43,43,43,43,43,43,43,43,43,43,43,52,
43,43,43,43,43,43,43,43,43,43,43,43,43,43,43,52,
43,43,43,43,43,43,43,43,43,43,43,43,43,43,43,52,
43,43,43,43,43,43,43,43,43,43,43,43,43,43,43,52,
43,43,43,43,43,43,43,43,43,43,43,43,43,43,43,53,
43,43,43,43,43,43,43,43,43,43,43,43,43,43,43,52,
43,43,43,43,43,43,43,43,43,43,43,43,43,43,43,52
</chunk>
   <chunk x="32" y="16" width="16" height="16">
43,43,43,43,43,43,43,43,43,43,43,43,43,43,43,43,
43,43,43,43,43,43,43,43,43,43,43,43,43,43,43,43,
43,43,43,43,43,43,43,43,43,43,43,43,43,43,43,43,
43,43,43,43,43,43,43,43,43,43,43,43,43,43,43,43,
43,43,43,43,43,43,43,43,43,43,43,43,43,43,43,43,
43,43,43,43,43,43,43,43,43,43,43,43,43,43,43,43,
43,43,43,43,43,43,43,43,43,43,43,43,43,43,43,43,
43,43,43,43,43,43,43,43,43,43,43,43,43,43,43,43,
43,43,43,43,43,43,43,43,43,43,43,43,43,43,43,43,
43,43,43,43,43,43,43,43,43,43,43,43,43,43,43,43,
43,43,43,43,43,43,43,43,43,43,43,43,43,43,43,43,
43,43,43,43,43,43,43,43,43,43,43,43,43,43,43,43,
43,43,43,43,43,43,43,43,43,43,43,43,43,43,43,43,
51,51,51,51,51,51,51,51,51,51,51,51,51,51,51,43,
43,43,43,43,43,43,43,43,43,43,43,43,43,43,43,43,
43,43,43,43,43,43,43,43,43,43,43,43,43,43,43,43
</chunk>
   <chunk x="48" y="16" width="16" height="16">
43,43,43,43,43,43,43,43,43,43,43,43,43,43,43,43,
43,43,43,43,43,43,43,43,43,43,43,43,43,43,43,43,
43,43,43,43,43,43,43,43,43,43,43,43,43,43,43,43,
43,43,43,43,43,43,43,43,43,43,43,43,43,43,43,43,
43,43,43,43,43,43,43,43,43,43,43,43,43,43,43,43,
43,43,43,43,43,43,43,43,43,43,43,43,43,43,43,43,
43,43,43,43,43,43,43,43,43,43,43,43,43,43,43,43,
43,43,43,43,43,43,43,43,43,43,43,43,43,43,43,43,
43,43,43,43,43,43,43,43,43,43,43,43,43,43,43,43,
43,43,43,43,43,43,43,43,43,43,43,43,43,43,43,43,
43,43,43,43,43,43,43,43,43,43,43,43,43,43,43,43,
43,43,43,43,43,43,43,43,43,43,43,43,43,43,43,43,
43,43,43,43,43,43,43,43,43,43,43,43,43,43,43,43,
43,43,43,43,43,43,43,43,43,43,43,43,43,43,43,43,
43,43,43,43,43,43,43,43,43,43,43,43,43,43,43,43,
43,43,43,43,43,43,43,43,43,43,43,43,43,43,43,43
</chunk>
   <chunk x="64" y="16" width="16" height="16">
43,43,0,0,0,0,0,0,0,0,0,0,0,0,0,0,
43,43,0,0,0,0,0,0,0,0,0,0,0,0,0,0,
43,43,0,0,0,0,0,0,0,0,0,0,0,0,0,0,
43,43,0,0,0,0,0,0,0,0,0,0,0,0,0,0,
43,43,0,0,0,0,0,0,0,0,0,0,0,0,0,0,
43,43,0,0,0,0,0,0,0,0,0,0,0,0,0,0,
43,43,0,0,0,0,0,0,0,0,0,0,0,0,0,0,
43,43,0,0,0,0,0,0,0,0,0,0,0,0,0,0,
43,43,0,0,0,0,0,0,0,0,0,0,0,0,0,0,
43,43,0,0,0,0,0,0,0,0,0,0,0,0,0,0,
43,43,0,0,0,0,0,0,0,0,0,0,0,0,0,0,
43,43,0,0,0,0,0,0,0,0,0,0,0,0,0,0,
43,43,0,0,0,0,0,0,0,0,0,0,0,0,0,0,
43,43,0,0,0,0,0,0,0,0,0,0,0,0,0,0,
43,43,0,0,0,0,0,0,0,0,0,0,0,0,0,0,
43,43,0,0,0,0,0,0,0,0,0,0,0,0,0,0
</chunk>
   <chunk x="-48" y="32" width="16" height="16">
0,0,17,17,17,17,17,17,17,17,17,17,17,17,17,17,
0,0,17,17,17,17,17,17,17,17,17,17,17,17,17,17,
0,0,17,17,17,17,17,17,17,17,17,17,17,17,17,17,
0,0,17,17,17,17,17,17,17,17,17,17,17,17,17,17,
0,0,17,17,17,17,17,17,17,17,17,17,17,17,17,17,
0,0,17,17,17,17,17,17,17,17,17,17,17,17,17,17,
0,0,17,17,17,17,17,17,17,17,17,17,17,17,17,17,
0,0,17,17,17,17,17,17,17,17,17,17,17,17,17,17,
0,0,17,17,17,17,17,17,17,17,17,17,17,17,17,17,
0,0,17,17,17,17,17,17,17,17,17,17,17,17,17,17,
0,0,17,17,17,17,17,17,17,17,17,17,17,17,17,17,
0,0,17,17,17,17,17,17,17,17,17,17,17,17,17,17,
0,0,17,17,17,17,17,17,17,17,17,17,17,17,17,17,
0,0,17,17,17,17,17,17,17,17,17,17,17,17,17,17,
0,0,17,17,17,17,17,17,17,17,17,17,17,17,17,17,
0,0,17,17,17,17,17,17,17,17,17,17,17,17,17,17
</chunk>
   <chunk x="-32" y="32" width="16" height="16">
17,17,17,17,17,17,17,17,17,17,17,17,17,17,17,17,
17,17,17,17,17,17,17,17,17,17,17,17,17,17,17,17,
17,17,17,17,17,17,17,17,17,17,17,17,17,17,17,17,
17,17,17,17,17,17,17,17,17,17,17,17,17,17,17,17,
17,17,17,17,17,17,17,17,17,17,17,17,17,17,17,17,
17,17,17,17,17,17,17,17,17,17,17,17,17,17,17,17,
17,17,17,17,17,17,17,17,17,17,17,17,17,17,17,17,
17,17,17,17,17,17,17,17,17,17,17,17,17,17,17,17,
17,17,17,17,17,17,17,17,17,17,17,17,17,17,17,17,
17,17,17,17,17,17,17,17,17,17,17,17,17,17,17,17,
17,17,17,17,17,17,17,17,17,17,17,17,17,17,17,17,
17,17,17,17,17,17,17,17,17,17,17,17,17,17,17,17,
17,17,17,17,17,17,17,17,17,17,17,17,17,17,17,17,
17,17,17,17,17,17,17,17,17,17,17,17,17,17,17,17,
17,17,17,17,17,17,17,17,17,17,17,17,17,17,17,17,
17,17,17,17,17,17,17,17,17,17,17,17,17,17,17,17
</chunk>
   <chunk x="-16" y="32" width="16" height="16">
17,17,17,26,17,17,39,44,43,43,43,43,43,43,43,43,
17,17,17,26,17,17,39,44,43,43,43,43,43,43,43,43,
17,17,17,26,17,17,17,39,44,43,43,43,43,43,43,43,
17,17,17,26,17,17,17,17,39,43,43,43,43,43,43,43,
17,17,17,26,17,17,17,17,39,43,43,43,43,43,43,43,
17,17,17,26,17,17,17,17,39,43,43,43,43,43,43,43,
17,17,17,26,17,17,17,17,39,43,43,43,43,43,43,43,
17,17,17,26,17,17,17,17,39,43,43,43,43,43,43,43,
17,17,17,26,17,17,17,17,39,43,43,43,43,43,43,43,
17,17,17,26,17,17,17,17,39,43,43,43,43,43,43,43,
17,17,17,26,17,17,17,17,17,40,40,40,43,43,43,43,
17,17,17,22,25,25,25,25,25,25,25,25,32,51,51,51,
17,17,17,17,17,17,17,17,17,17,17,17,17,40,40,43,
17,17,17,17,17,17,17,17,17,17,17,17,17,17,17,39,
17,17,17,17,17,17,17,17,17,17,17,17,17,17,17,39,
17,17,17,17,17,17,17,17,17,17,17,17,17,17,39,44
</chunk>
   <chunk x="0" y="32" width="16" height="16">
43,43,43,43,43,43,43,43,43,43,43,43,43,43,43,43,
43,43,43,43,43,43,43,43,43,43,43,43,43,43,43,43,
43,43,43,43,43,43,43,43,43,43,43,43,43,43,43,43,
43,43,43,43,43,43,43,43,43,43,43,43,43,43,43,43,
43,43,43,43,43,43,43,43,43,43,43,43,43,43,43,43,
43,43,43,43,43,43,43,43,43,43,43,43,43,43,43,43,
43,43,43,43,43,43,43,43,43,43,43,43,43,43,43,43,
43,43,43,43,43,43,43,43,43,43,43,43,43,43,43,43,
43,43,43,43,43,43,43,43,43,43,43,43,43,43,43,43,
43,43,43,43,43,43,43,43,43,43,43,43,43,43,43,43,
43,43,43,43,43,43,43,43,43,43,43,43,43,43,43,43,
51,51,51,51,51,51,51,51,51,51,51,51,51,51,51,51,
43,44,43,43,43,43,43,43,43,43,43,43,43,43,43,43,
44,44,43,43,43,43,43,43,43,43,43,43,43,43,43,43,
43,43,43,43,43,43,43,43,43,43,43,43,43,43,43,43,
43,43,43,43,43,43,43,43,43,43,43,43,43,43,43,43
</chunk>
   <chunk x="16" y="32" width="16" height="16">
43,43,43,43,43,43,43,43,43,43,43,43,43,43,43,52,
43,43,43,43,43,43,43,43,43,43,43,43,43,43,43,52,
43,43,43,43,43,43,43,43,43,43,43,43,43,43,43,52,
43,43,43,43,43,43,43,43,43,43,43,43,43,43,43,52,
43,43,43,43,43,43,43,43,43,43,43,43,43,43,43,52,
43,43,43,43,43,43,43,43,43,43,43,43,43,43,43,52,
43,43,43,43,43,43,43,43,43,43,43,43,43,43,43,52,
43,43,43,43,43,43,43,43,43,43,43,43,43,43,43,52,
43,43,43,43,43,43,43,43,43,43,43,43,43,43,43,52,
43,43,43,43,43,43,43,43,43,43,43,43,43,43,43,52,
43,43,43,43,43,43,43,43,43,43,43,43,43,43,43,52,
51,51,51,51,51,51,51,51,51,51,51,51,51,51,51,47,
43,43,43,43,43,43,43,43,43,43,43,43,43,43,43,43,
43,43,43,43,43,43,43,43,43,43,43,43,43,43,43,43,
43,43,43,43,43,43,43,43,43,43,43,43,43,43,43,43,
43,43,43,43,43,43,43,43,43,43,43,43,43,43,43,43
</chunk>
   <chunk x="32" y="32" width="16" height="16">
43,43,43,43,43,43,43,43,43,43,43,43,43,43,43,43,
43,43,43,43,43,43,43,43,43,43,43,43,43,43,43,43,
43,43,43,43,43,43,43,43,43,43,43,43,43,43,43,43,
43,43,43,43,43,43,43,43,43,43,43,43,43,43,43,43,
43,43,43,43,43,43,43,43,43,43,43,43,43,43,43,43,
43,43,43,43,43,43,43,43,43,43,43,43,43,43,43,43,
43,43,43,43,43,43,43,43,43,43,43,43,43,43,43,43,
43,43,43,43,43,43,43,43,43,43,43,43,43,43,43,43,
43,43,43,43,43,43,43,43,43,43,43,43,43,43,43,43,
43,43,43,43,43,43,43,43,43,43,43,43,43,43,43,43,
43,43,43,43,43,43,43,43,43,43,43,43,43,43,43,43,
43,43,43,43,43,43,43,43,43,43,43,43,43,43,43,43,
43,43,43,43,43,43,43,43,43,43,43,43,43,43,43,43,
43,43,43,43,43,43,43,43,43,43,43,43,43,43,43,43,
43,43,43,43,43,43,43,43,43,43,43,43,43,43,43,43,
43,43,43,43,43,43,43,43,43,43,43,43,43,43,43,43
</chunk>
   <chunk x="48" y="32" width="16" height="16">
43,43,43,43,43,43,43,43,43,43,43,43,43,43,43,43,
43,43,43,43,43,43,43,43,43,43,43,43,43,43,43,43,
43,43,43,43,43,43,43,43,43,43,43,43,43,43,43,43,
43,43,43,43,43,43,43,43,43,43,43,43,43,43,43,43,
43,43,43,43,43,43,43,43,43,43,43,43,43,43,43,43,
43,43,43,43,43,43,43,43,43,43,43,43,43,43,43,43,
43,43,43,43,43,43,43,43,43,43,43,43,43,43,43,43,
43,43,43,43,43,43,43,43,43,43,43,43,43,43,43,43,
43,43,43,43,43,43,43,43,43,43,43,43,43,43,43,43,
43,43,43,43,43,43,43,43,43,43,43,43,43,43,43,43,
43,43,43,43,43,43,43,43,43,43,43,43,43,43,43,43,
43,43,43,43,43,43,43,43,43,43,43,43,43,43,43,43,
43,43,43,43,43,43,43,43,43,43,43,43,43,43,43,43,
43,43,43,43,43,43,43,43,43,43,43,43,43,43,43,43,
43,43,43,43,43,43,43,43,43,43,43,43,43,43,43,43,
43,43,43,43,43,43,43,43,43,43,43,43,43,43,43,43
</chunk>
   <chunk x="64" y="32" width="16" height="16">
43,43,0,0,0,0,0,0,0,0,0,0,0,0,0,0,
43,43,0,0,0,0,0,0,0,0,0,0,0,0,0,0,
43,43,0,0,0,0,0,0,0,0,0,0,0,0,0,0,
43,43,0,0,0,0,0,0,0,0,0,0,0,0,0,0,
43,43,0,0,0,0,0,0,0,0,0,0,0,0,0,0,
43,43,0,0,0,0,0,0,0,0,0,0,0,0,0,0,
43,43,0,0,0,0,0,0,0,0,0,0,0,0,0,0,
43,43,0,0,0,0,0,0,0,0,0,0,0,0,0,0,
43,43,0,0,0,0,0,0,0,0,0,0,0,0,0,0,
43,43,0,0,0,0,0,0,0,0,0,0,0,0,0,0,
43,43,0,0,0,0,0,0,0,0,0,0,0,0,0,0,
43,43,0,0,0,0,0,0,0,0,0,0,0,0,0,0,
43,43,0,0,0,0,0,0,0,0,0,0,0,0,0,0,
43,43,0,0,0,0,0,0,0,0,0,0,0,0,0,0,
43,43,0,0,0,0,0,0,0,0,0,0,0,0,0,0,
43,43,0,0,0,0,0,0,0,0,0,0,0,0,0,0
</chunk>
   <chunk x="-48" y="48" width="16" height="16">
0,0,17,17,17,17,17,17,17,17,17,17,17,17,17,17,
0,0,17,17,17,17,17,17,17,17,17,17,17,17,17,17,
0,0,17,17,17,17,17,17,17,17,17,17,17,17,17,17,
0,0,17,17,17,17,17,17,17,17,17,17,17,17,17,17,
0,0,17,17,17,17,17,17,17,17,17,17,17,17,17,17,
0,0,17,17,17,17,17,17,17,17,17,17,17,17,17,17,
0,0,17,17,17,17,17,17,17,17,17,17,17,17,17,17,
0,0,17,17,17,17,17,17,17,17,17,17,17,17,17,17,
0,0,17,17,17,17,17,17,17,17,17,17,17,17,17,17,
0,0,17,17,17,17,17,17,17,17,17,17,17,17,17,17,
0,0,17,17,17,17,17,17,17,17,17,17,17,17,17,17,
0,0,17,17,17,17,17,17,17,17,17,17,17,17,17,17,
0,0,17,17,17,17,17,17,17,17,17,17,17,17,17,17,
0,0,17,17,17,17,17,17,17,17,17,17,17,17,17,17,
0,0,17,17,17,17,17,17,17,17,17,17,17,17,17,17,
0,0,17,17,17,17,17,17,17,17,17,17,17,17,17,17
</chunk>
   <chunk x="-32" y="48" width="16" height="16">
17,17,17,17,17,17,17,17,17,17,17,17,17,17,17,17,
17,17,17,17,17,17,17,17,17,17,17,17,17,17,17,17,
17,17,17,17,17,17,17,17,17,17,17,17,17,17,17,17,
17,17,17,17,17,17,17,17,17,17,17,17,17,17,17,17,
17,17,17,17,17,17,17,17,17,17,17,17,17,17,17,17,
17,17,17,17,17,17,17,17,17,17,17,17,17,17,17,17,
17,17,17,17,17,17,17,17,17,17,17,17,17,17,17,17,
17,17,17,17,17,17,17,17,17,17,17,17,17,17,17,17,
17,17,17,17,17,17,17,17,17,17,17,17,17,17,17,17,
17,17,17,17,17,17,17,17,17,17,17,17,17,17,17,17,
17,17,17,17,17,17,17,17,17,17,17,17,17,17,17,17,
17,17,17,17,17,17,17,17,17,17,17,17,17,17,17,17,
17,17,17,17,17,17,17,17,17,17,17,17,17,17,17,17,
17,17,17,17,17,17,17,17,17,17,17,17,17,17,17,17,
17,17,17,17,17,17,17,17,17,17,17,17,17,17,17,17,
17,17,17,17,17,17,17,17,17,17,17,17,17,17,17,17
</chunk>
   <chunk x="-16" y="48" width="16" height="16">
17,17,17,17,17,17,17,17,17,17,17,17,17,17,39,44,
17,17,17,17,17,17,17,17,17,17,17,17,17,39,44,44,
17,17,17,17,17,17,17,17,17,17,17,39,44,44,43,43,
17,17,17,17,17,17,17,17,17,39,43,43,43,43,43,43,
17,17,17,17,17,17,17,17,39,44,43,43,43,43,43,43,
17,17,17,17,17,17,17,39,44,44,43,43,43,43,43,43,
17,17,17,17,17,17,39,44,43,43,43,43,43,43,43,43,
17,17,17,17,39,43,43,43,43,43,43,43,43,43,43,43,
17,17,17,17,39,43,43,43,43,43,43,43,43,43,43,43,
17,17,17,17,39,43,43,43,43,43,43,43,43,43,43,43,
17,17,17,17,39,43,43,43,43,43,43,43,43,43,43,43,
17,17,17,17,39,43,43,43,43,43,43,43,43,43,43,43,
17,17,17,17,39,43,43,43,43,43,43,43,43,43,43,43,
17,17,17,17,39,43,43,43,43,43,43,43,43,43,43,43,
17,17,17,17,17,39,43,43,43,43,43,43,43,43,43,43,
17,17,17,17,17,39,43,43,43,43,43,43,43,43,43,43
</chunk>
   <chunk x="0" y="48" width="16" height="16">
43,43,43,43,43,43,43,43,43,43,43,43,43,43,43,43,
43,43,43,43,43,43,43,43,43,43,43,43,43,43,43,43,
43,43,43,43,43,43,43,43,43,43,43,43,43,43,43,43,
43,43,43,43,43,43,43,43,43,43,43,43,43,43,43,43,
43,43,43,43,43,43,43,43,43,43,43,43,43,43,43,43,
43,43,43,43,43,43,43,43,43,43,43,43,43,43,43,43,
43,43,43,43,43,43,43,43,43,43,43,43,43,43,43,43,
43,43,43,43,43,43,43,43,43,43,43,43,43,43,43,43,
43,43,43,43,43,43,43,43,43,43,43,43,43,43,43,43,
43,43,43,43,43,43,43,43,43,43,43,43,43,43,43,43,
43,43,43,43,43,43,43,43,43,43,43,43,43,43,43,43,
43,43,43,43,43,43,43,43,43,43,43,43,43,43,43,43,
43,43,43,43,43,43,43,43,43,43,43,43,43,43,43,43,
43,43,43,43,43,43,43,43,43,43,43,43,43,43,43,43,
43,43,43,43,43,43,43,43,43,43,43,43,43,43,43,43,
43,43,43,43,43,43,43,43,43,43,43,43,43,43,43,43
</chunk>
   <chunk x="16" y="48" width="16" height="16">
43,43,43,43,43,43,43,43,43,43,43,43,43,43,43,43,
43,43,43,43,43,43,43,43,43,43,43,43,43,43,43,43,
43,43,43,43,43,43,43,43,43,43,43,43,43,43,43,43,
43,43,43,43,43,43,43,43,43,43,43,43,43,43,43,43,
43,43,43,43,43,43,43,43,43,43,43,43,43,43,43,43,
43,43,43,43,43,43,43,43,43,43,43,43,43,43,43,43,
43,43,43,43,43,43,43,43,43,43,43,43,43,43,43,43,
43,43,43,43,43,43,43,43,43,43,43,43,43,43,43,43,
43,43,43,43,43,43,43,43,43,43,43,43,43,43,43,43,
43,43,43,43,43,43,43,43,43,43,43,43,43,43,43,43,
43,43,43,43,43,43,43,43,43,43,43,43,43,43,43,43,
43,43,43,43,43,43,43,43,43,43,43,43,43,43,43,43,
43,43,43,43,43,43,43,43,43,43,43,43,43,43,43,43,
43,43,43,43,43,43,43,43,43,43,43,43,43,43,43,43,
43,43,43,43,43,43,43,43,43,43,43,43,43,43,43,43,
43,43,43,43,43,43,43,43,43,43,43,43,43,43,43,43
</chunk>
   <chunk x="32" y="48" width="16" height="16">
43,43,43,43,43,43,43,43,43,43,43,43,43,43,43,43,
43,43,43,43,43,43,43,43,43,43,43,43,43,43,43,43,
43,43,43,43,43,43,43,43,43,43,43,43,43,43,43,43,
43,43,43,43,43,43,43,43,43,43,43,43,43,43,43,43,
43,43,43,43,43,43,43,43,43,43,43,43,43,43,43,43,
43,43,43,43,43,43,43,43,43,43,43,43,43,43,43,43,
43,43,43,43,43,43,43,43,43,43,43,43,43,43,43,43,
43,43,43,43,43,43,43,43,43,43,43,43,43,43,43,43,
43,43,43,43,43,43,43,43,43,43,43,43,43,43,43,43,
43,43,43,43,43,43,43,43,43,43,43,43,43,43,43,43,
43,43,43,43,43,43,43,43,43,43,43,43,43,43,43,43,
43,43,43,43,43,43,43,43,43,43,43,43,43,43,43,43,
43,43,43,43,43,43,43,43,43,43,43,43,43,43,43,43,
43,43,43,43,43,43,43,43,43,43,43,43,43,43,43,43,
43,43,43,43,43,43,43,43,43,43,43,43,43,43,43,43,
43,43,43,43,43,43,43,43,43,43,43,43,43,43,43,43
</chunk>
   <chunk x="48" y="48" width="16" height="16">
43,43,43,43,43,43,43,43,43,43,43,43,43,43,43,43,
43,43,43,43,43,43,43,43,43,43,43,43,43,43,43,43,
43,43,43,43,43,43,43,43,43,43,43,43,43,43,43,43,
43,43,43,43,43,43,43,43,43,43,43,43,43,43,43,43,
43,43,43,43,43,43,43,43,43,43,43,43,43,43,43,43,
43,43,43,43,43,43,43,43,43,43,43,43,43,43,43,43,
43,43,43,43,43,43,43,43,43,43,43,43,43,43,43,43,
43,43,43,43,43,43,43,43,43,43,43,43,43,43,43,43,
43,43,43,43,43,43,43,43,43,43,43,43,43,43,43,43,
43,43,43,43,43,43,43,43,43,43,43,43,43,43,43,43,
43,43,43,43,43,43,43,43,43,43,43,43,43,43,43,43,
43,43,43,43,43,43,43,43,43,43,43,43,43,43,43,43,
43,43,43,43,43,43,43,43,43,43,43,43,43,43,43,43,
43,43,43,43,43,43,43,43,43,43,43,43,43,43,43,43,
43,43,43,43,43,43,43,43,43,43,43,43,43,43,43,43,
43,43,43,43,43,43,43,43,43,43,43,43,43,43,43,43
</chunk>
   <chunk x="64" y="48" width="16" height="16">
43,43,0,0,0,0,0,0,0,0,0,0,0,0,0,0,
43,43,0,0,0,0,0,0,0,0,0,0,0,0,0,0,
43,43,0,0,0,0,0,0,0,0,0,0,0,0,0,0,
43,43,0,0,0,0,0,0,0,0,0,0,0,0,0,0,
43,43,0,0,0,0,0,0,0,0,0,0,0,0,0,0,
43,43,0,0,0,0,0,0,0,0,0,0,0,0,0,0,
43,43,0,0,0,0,0,0,0,0,0,0,0,0,0,0,
43,43,0,0,0,0,0,0,0,0,0,0,0,0,0,0,
43,43,0,0,0,0,0,0,0,0,0,0,0,0,0,0,
43,43,0,0,0,0,0,0,0,0,0,0,0,0,0,0,
43,43,0,0,0,0,0,0,0,0,0,0,0,0,0,0,
43,43,0,0,0,0,0,0,0,0,0,0,0,0,0,0,
43,43,0,0,0,0,0,0,0,0,0,0,0,0,0,0,
43,43,0,0,0,0,0,0,0,0,0,0,0,0,0,0,
43,43,0,0,0,0,0,0,0,0,0,0,0,0,0,0,
43,43,0,0,0,0,0,0,0,0,0,0,0,0,0,0
</chunk>
   <chunk x="-48" y="64" width="16" height="16">
0,0,17,17,17,17,17,17,17,17,17,17,17,17,17,17,
0,0,17,17,17,17,17,17,17,17,17,17,17,17,17,17,
0,0,0,0,0,0,0,0,0,0,0,0,0,0,0,0,
0,0,0,0,0,0,0,0,0,0,0,0,0,0,0,0,
0,0,0,0,0,0,0,0,0,0,0,0,0,0,0,0,
0,0,0,0,0,0,0,0,0,0,0,0,0,0,0,0,
0,0,0,0,0,0,0,0,0,0,0,0,0,0,0,0,
0,0,0,0,0,0,0,0,0,0,0,0,0,0,0,0,
0,0,0,0,0,0,0,0,0,0,0,0,0,0,0,0,
0,0,0,0,0,0,0,0,0,0,0,0,0,0,0,0,
0,0,0,0,0,0,0,0,0,0,0,0,0,0,0,0,
0,0,0,0,0,0,0,0,0,0,0,0,0,0,0,0,
0,0,0,0,0,0,0,0,0,0,0,0,0,0,0,0,
0,0,0,0,0,0,0,0,0,0,0,0,0,0,0,0,
0,0,0,0,0,0,0,0,0,0,0,0,0,0,0,0,
0,0,0,0,0,0,0,0,0,0,0,0,0,0,0,0
</chunk>
   <chunk x="-32" y="64" width="16" height="16">
17,17,17,17,17,17,17,17,17,17,17,17,17,17,17,17,
17,17,17,17,17,17,17,17,17,17,17,17,17,17,17,17,
0,0,0,0,0,0,0,0,0,0,0,0,0,0,0,0,
0,0,0,0,0,0,0,0,0,0,0,0,0,0,0,0,
0,0,0,0,0,0,0,0,0,0,0,0,0,0,0,0,
0,0,0,0,0,0,0,0,0,0,0,0,0,0,0,0,
0,0,0,0,0,0,0,0,0,0,0,0,0,0,0,0,
0,0,0,0,0,0,0,0,0,0,0,0,0,0,0,0,
0,0,0,0,0,0,0,0,0,0,0,0,0,0,0,0,
0,0,0,0,0,0,0,0,0,0,0,0,0,0,0,0,
0,0,0,0,0,0,0,0,0,0,0,0,0,0,0,0,
0,0,0,0,0,0,0,0,0,0,0,0,0,0,0,0,
0,0,0,0,0,0,0,0,0,0,0,0,0,0,0,0,
0,0,0,0,0,0,0,0,0,0,0,0,0,0,0,0,
0,0,0,0,0,0,0,0,0,0,0,0,0,0,0,0,
0,0,0,0,0,0,0,0,0,0,0,0,0,0,0,0
</chunk>
   <chunk x="-16" y="64" width="16" height="16">
17,17,17,17,17,17,39,43,43,43,43,43,43,43,43,43,
17,17,17,17,17,17,39,43,43,43,43,43,43,43,43,43,
0,0,0,0,0,0,0,0,0,0,0,0,0,0,0,0,
0,0,0,0,0,0,0,0,0,0,0,0,0,0,0,0,
0,0,0,0,0,0,0,0,0,0,0,0,0,0,0,0,
0,0,0,0,0,0,0,0,0,0,0,0,0,0,0,0,
0,0,0,0,0,0,0,0,0,0,0,0,0,0,0,0,
0,0,0,0,0,0,0,0,0,0,0,0,0,0,0,0,
0,0,0,0,0,0,0,0,0,0,0,0,0,0,0,0,
0,0,0,0,0,0,0,0,0,0,0,0,0,0,0,0,
0,0,0,0,0,0,0,0,0,0,0,0,0,0,0,0,
0,0,0,0,0,0,0,0,0,0,0,0,0,0,0,0,
0,0,0,0,0,0,0,0,0,0,0,0,0,0,0,0,
0,0,0,0,0,0,0,0,0,0,0,0,0,0,0,0,
0,0,0,0,0,0,0,0,0,0,0,0,0,0,0,0,
0,0,0,0,0,0,0,0,0,0,0,0,0,0,0,0
</chunk>
   <chunk x="0" y="64" width="16" height="16">
43,43,43,43,43,43,43,43,43,43,43,43,43,43,43,43,
43,43,43,43,43,43,43,43,43,43,43,43,43,43,43,43,
0,0,0,0,0,0,0,0,0,0,0,0,0,0,0,0,
0,0,0,0,0,0,0,0,0,0,0,0,0,0,0,0,
0,0,0,0,0,0,0,0,0,0,0,0,0,0,0,0,
0,0,0,0,0,0,0,0,0,0,0,0,0,0,0,0,
0,0,0,0,0,0,0,0,0,0,0,0,0,0,0,0,
0,0,0,0,0,0,0,0,0,0,0,0,0,0,0,0,
0,0,0,0,0,0,0,0,0,0,0,0,0,0,0,0,
0,0,0,0,0,0,0,0,0,0,0,0,0,0,0,0,
0,0,0,0,0,0,0,0,0,0,0,0,0,0,0,0,
0,0,0,0,0,0,0,0,0,0,0,0,0,0,0,0,
0,0,0,0,0,0,0,0,0,0,0,0,0,0,0,0,
0,0,0,0,0,0,0,0,0,0,0,0,0,0,0,0,
0,0,0,0,0,0,0,0,0,0,0,0,0,0,0,0,
0,0,0,0,0,0,0,0,0,0,0,0,0,0,0,0
</chunk>
   <chunk x="16" y="64" width="16" height="16">
43,43,43,43,43,43,43,43,43,43,43,43,43,43,43,43,
43,43,43,43,43,43,43,43,43,43,43,43,43,43,43,43,
0,0,0,0,0,0,0,0,0,0,0,0,0,0,0,0,
0,0,0,0,0,0,0,0,0,0,0,0,0,0,0,0,
0,0,0,0,0,0,0,0,0,0,0,0,0,0,0,0,
0,0,0,0,0,0,0,0,0,0,0,0,0,0,0,0,
0,0,0,0,0,0,0,0,0,0,0,0,0,0,0,0,
0,0,0,0,0,0,0,0,0,0,0,0,0,0,0,0,
0,0,0,0,0,0,0,0,0,0,0,0,0,0,0,0,
0,0,0,0,0,0,0,0,0,0,0,0,0,0,0,0,
0,0,0,0,0,0,0,0,0,0,0,0,0,0,0,0,
0,0,0,0,0,0,0,0,0,0,0,0,0,0,0,0,
0,0,0,0,0,0,0,0,0,0,0,0,0,0,0,0,
0,0,0,0,0,0,0,0,0,0,0,0,0,0,0,0,
0,0,0,0,0,0,0,0,0,0,0,0,0,0,0,0,
0,0,0,0,0,0,0,0,0,0,0,0,0,0,0,0
</chunk>
   <chunk x="32" y="64" width="16" height="16">
43,43,43,43,43,43,43,43,43,43,43,43,43,43,43,43,
43,43,43,43,43,43,43,43,43,43,43,43,43,43,43,43,
0,0,0,0,0,0,0,0,0,0,0,0,0,0,0,0,
0,0,0,0,0,0,0,0,0,0,0,0,0,0,0,0,
0,0,0,0,0,0,0,0,0,0,0,0,0,0,0,0,
0,0,0,0,0,0,0,0,0,0,0,0,0,0,0,0,
0,0,0,0,0,0,0,0,0,0,0,0,0,0,0,0,
0,0,0,0,0,0,0,0,0,0,0,0,0,0,0,0,
0,0,0,0,0,0,0,0,0,0,0,0,0,0,0,0,
0,0,0,0,0,0,0,0,0,0,0,0,0,0,0,0,
0,0,0,0,0,0,0,0,0,0,0,0,0,0,0,0,
0,0,0,0,0,0,0,0,0,0,0,0,0,0,0,0,
0,0,0,0,0,0,0,0,0,0,0,0,0,0,0,0,
0,0,0,0,0,0,0,0,0,0,0,0,0,0,0,0,
0,0,0,0,0,0,0,0,0,0,0,0,0,0,0,0,
0,0,0,0,0,0,0,0,0,0,0,0,0,0,0,0
</chunk>
   <chunk x="48" y="64" width="16" height="16">
43,43,43,43,43,43,43,43,43,43,43,43,43,43,43,43,
43,43,43,43,43,43,43,43,43,43,43,43,43,43,43,43,
0,0,0,0,0,0,0,0,0,0,0,0,0,0,0,0,
0,0,0,0,0,0,0,0,0,0,0,0,0,0,0,0,
0,0,0,0,0,0,0,0,0,0,0,0,0,0,0,0,
0,0,0,0,0,0,0,0,0,0,0,0,0,0,0,0,
0,0,0,0,0,0,0,0,0,0,0,0,0,0,0,0,
0,0,0,0,0,0,0,0,0,0,0,0,0,0,0,0,
0,0,0,0,0,0,0,0,0,0,0,0,0,0,0,0,
0,0,0,0,0,0,0,0,0,0,0,0,0,0,0,0,
0,0,0,0,0,0,0,0,0,0,0,0,0,0,0,0,
0,0,0,0,0,0,0,0,0,0,0,0,0,0,0,0,
0,0,0,0,0,0,0,0,0,0,0,0,0,0,0,0,
0,0,0,0,0,0,0,0,0,0,0,0,0,0,0,0,
0,0,0,0,0,0,0,0,0,0,0,0,0,0,0,0,
0,0,0,0,0,0,0,0,0,0,0,0,0,0,0,0
</chunk>
   <chunk x="64" y="64" width="16" height="16">
43,43,0,0,0,0,0,0,0,0,0,0,0,0,0,0,
43,43,0,0,0,0,0,0,0,0,0,0,0,0,0,0,
0,0,0,0,0,0,0,0,0,0,0,0,0,0,0,0,
0,0,0,0,0,0,0,0,0,0,0,0,0,0,0,0,
0,0,0,0,0,0,0,0,0,0,0,0,0,0,0,0,
0,0,0,0,0,0,0,0,0,0,0,0,0,0,0,0,
0,0,0,0,0,0,0,0,0,0,0,0,0,0,0,0,
0,0,0,0,0,0,0,0,0,0,0,0,0,0,0,0,
0,0,0,0,0,0,0,0,0,0,0,0,0,0,0,0,
0,0,0,0,0,0,0,0,0,0,0,0,0,0,0,0,
0,0,0,0,0,0,0,0,0,0,0,0,0,0,0,0,
0,0,0,0,0,0,0,0,0,0,0,0,0,0,0,0,
0,0,0,0,0,0,0,0,0,0,0,0,0,0,0,0,
0,0,0,0,0,0,0,0,0,0,0,0,0,0,0,0,
0,0,0,0,0,0,0,0,0,0,0,0,0,0,0,0,
0,0,0,0,0,0,0,0,0,0,0,0,0,0,0,0
</chunk>
  </data>
 </layer>
 <layer id="3" name="Foreground" width="30" height="20">
  <data encoding="csv">
   <chunk x="-48" y="-48" width="16" height="16">
0,0,0,0,0,0,0,0,0,0,0,0,0,0,0,0,
0,0,0,0,0,0,0,0,0,0,0,0,0,0,0,0,
0,0,60,60,60,60,60,60,60,60,60,60,60,60,60,60,
0,0,60,60,60,60,60,60,60,60,60,60,60,60,60,60,
0,0,60,60,60,60,60,60,60,60,60,60,60,60,60,60,
0,0,60,60,60,60,60,60,60,60,60,60,60,60,60,60,
0,0,60,60,60,60,60,60,60,60,60,60,60,60,60,60,
0,0,60,60,60,60,60,60,60,60,60,60,60,60,60,60,
0,0,60,60,60,60,60,60,60,60,60,60,60,60,60,60,
0,0,60,60,60,60,60,60,60,60,60,60,60,60,60,60,
0,0,60,60,60,60,60,60,60,60,60,60,60,60,60,60,
0,0,60,60,60,60,60,60,60,60,60,60,60,60,60,60,
0,0,60,60,60,60,60,60,60,60,60,60,60,60,60,60,
0,0,60,60,60,60,60,60,60,60,60,60,60,60,60,60,
0,0,60,60,60,60,60,60,60,60,60,60,60,60,60,60,
0,0,60,60,60,60,60,60,60,60,60,60,60,60,60,60
</chunk>
   <chunk x="-32" y="-48" width="16" height="16">
0,0,0,0,0,0,0,0,0,0,0,0,0,0,0,0,
0,0,0,0,0,0,0,0,0,0,0,0,0,0,0,0,
60,60,60,60,60,60,60,60,60,60,60,60,60,60,60,60,
60,60,60,60,60,60,60,60,60,60,60,60,60,60,60,60,
60,60,60,60,60,60,60,60,60,60,60,60,60,60,60,60,
60,60,60,60,60,60,60,60,60,60,60,60,60,60,60,60,
60,60,60,60,60,60,60,60,60,60,60,60,60,60,60,60,
60,60,60,60,60,60,60,60,60,60,60,60,60,60,60,60,
60,60,60,60,60,60,60,60,60,60,60,60,60,60,60,60,
60,60,60,60,60,60,60,60,60,60,60,60,60,60,60,60,
60,60,60,60,60,60,60,60,60,60,60,60,60,60,60,60,
60,60,60,60,60,60,60,60,60,60,60,60,60,60,60,60,
60,60,60,60,60,60,60,60,60,60,60,60,60,60,60,60,
60,60,60,60,60,60,60,60,60,60,60,60,60,60,60,60,
60,60,60,60,60,60,60,60,60,60,60,60,60,60,60,60,
60,60,60,60,60,60,60,60,60,60,60,60,60,60,60,60
</chunk>
   <chunk x="-16" y="-48" width="16" height="16">
0,0,0,0,0,0,0,0,0,0,0,0,0,0,0,0,
0,0,0,0,0,0,0,0,0,0,0,0,0,0,0,0,
60,60,60,60,60,60,60,60,60,60,60,60,60,60,60,60,
60,60,60,60,60,60,60,60,60,60,60,60,60,60,60,60,
60,60,60,60,60,60,60,60,60,60,60,60,60,60,60,60,
60,60,60,60,60,60,60,60,60,60,60,60,60,60,60,60,
60,60,60,60,60,60,60,60,60,60,60,60,60,60,60,60,
60,60,60,60,60,60,60,60,60,60,60,60,60,60,60,60,
60,60,60,60,60,60,60,60,60,60,60,60,60,60,60,60,
60,60,60,60,60,60,60,60,60,60,60,60,60,60,60,60,
60,60,60,60,60,60,60,60,60,60,60,60,60,60,60,60,
60,60,60,60,60,60,60,60,60,60,60,60,60,60,60,60,
60,60,60,60,60,60,60,60,60,60,60,60,60,60,60,60,
60,60,60,60,60,60,60,60,60,60,60,60,60,60,60,60,
60,60,60,60,60,60,60,60,60,60,60,60,60,60,60,60,
60,60,60,60,60,60,60,60,60,60,60,60,60,60,60,60
</chunk>
   <chunk x="0" y="-48" width="16" height="16">
0,0,0,0,0,0,0,0,0,0,0,0,0,0,0,0,
0,0,0,0,0,0,0,0,0,0,0,0,0,0,0,0,
60,60,60,60,60,60,60,60,60,60,60,60,60,60,60,60,
60,60,60,60,60,60,60,60,60,60,60,60,60,60,60,60,
60,60,60,60,60,60,60,60,60,60,60,60,60,60,60,60,
60,60,60,60,60,60,60,60,60,60,60,60,60,60,60,60,
60,60,60,60,60,60,60,60,60,60,60,60,60,60,60,60,
60,60,60,60,60,60,60,60,60,60,60,60,60,60,60,60,
60,60,60,60,60,60,60,60,60,60,60,60,60,60,60,60,
60,60,60,60,60,60,60,60,60,60,60,60,60,60,60,60,
60,60,60,60,60,60,60,60,60,60,60,60,60,60,60,60,
60,60,60,60,60,60,60,60,60,60,60,60,60,60,60,60,
60,60,60,60,60,60,60,60,60,60,60,60,60,60,60,60,
60,60,60,60,60,60,60,60,60,60,60,60,60,60,60,60,
60,60,60,60,60,60,60,60,60,60,60,60,60,60,60,60,
60,60,60,60,60,60,60,60,60,60,60,60,60,60,60,60
</chunk>
   <chunk x="16" y="-48" width="16" height="16">
0,0,0,0,0,0,0,0,0,0,0,0,0,0,0,0,
0,0,0,0,0,0,0,0,0,0,0,0,0,0,0,0,
60,60,60,60,60,60,60,60,60,60,60,60,60,60,60,60,
60,60,60,60,60,60,60,60,60,60,60,60,60,60,60,60,
60,60,60,60,60,60,60,60,60,60,60,60,60,60,60,60,
60,60,60,60,60,60,60,60,60,60,60,60,60,60,60,60,
60,60,60,60,60,60,60,60,60,60,60,60,60,60,60,60,
60,60,60,60,60,60,60,60,60,60,60,60,60,60,60,60,
60,60,60,60,60,60,60,60,60,60,60,60,60,60,60,60,
60,60,60,60,60,60,60,60,60,60,60,60,60,60,60,60,
60,60,60,60,60,60,60,60,60,60,60,60,60,60,60,60,
60,60,60,60,60,60,60,60,60,60,60,60,60,60,60,60,
60,60,60,60,60,60,60,60,60,60,60,60,60,60,60,60,
60,60,60,60,60,60,60,60,60,60,60,60,60,60,60,60,
60,60,60,60,60,60,60,60,60,60,60,60,60,60,60,60,
60,60,60,60,60,60,60,60,60,60,60,60,60,60,60,60
</chunk>
   <chunk x="32" y="-48" width="16" height="16">
0,0,0,0,0,0,0,0,0,0,0,0,0,0,0,0,
0,0,0,0,0,0,0,0,0,0,0,0,0,0,0,0,
60,60,60,60,60,60,60,60,60,60,60,60,60,60,60,60,
60,60,60,60,60,60,60,60,60,60,60,60,60,60,60,60,
60,60,60,60,60,60,60,60,60,60,60,60,60,60,60,60,
60,60,60,60,60,60,60,60,60,60,60,60,60,60,60,60,
60,60,60,60,60,60,60,60,60,60,60,60,60,60,60,60,
60,60,60,60,60,60,60,60,60,60,60,60,60,60,60,60,
60,60,60,60,60,60,60,60,60,60,60,60,60,60,60,60,
60,60,60,60,60,60,60,60,60,60,60,60,60,60,60,60,
60,60,60,60,60,60,60,60,60,60,60,60,60,60,60,60,
60,60,60,60,60,60,60,60,60,60,60,60,60,60,60,60,
60,60,60,60,60,60,60,60,60,60,60,60,60,60,60,60,
60,60,60,60,60,60,60,60,60,60,60,60,60,60,60,60,
60,60,60,60,60,60,60,60,60,60,60,60,60,60,60,60,
60,60,60,60,60,60,60,60,60,60,60,60,60,60,60,60
</chunk>
   <chunk x="48" y="-48" width="16" height="16">
0,0,0,0,0,0,0,0,0,0,0,0,0,0,0,0,
0,0,0,0,0,0,0,0,0,0,0,0,0,0,0,0,
60,60,60,60,60,60,60,60,60,60,60,60,60,60,60,60,
60,60,60,60,60,60,60,60,60,60,60,60,60,60,60,60,
60,60,60,60,60,60,60,60,60,60,60,60,60,60,60,60,
60,60,60,60,60,60,60,60,60,60,60,60,60,60,60,60,
60,60,60,60,60,60,60,60,60,60,60,60,60,60,60,60,
60,60,60,60,60,60,60,60,60,60,60,60,60,60,60,60,
60,60,60,60,60,60,60,60,60,60,60,60,60,60,60,60,
60,60,60,60,60,60,60,60,60,60,60,60,60,60,60,60,
60,60,60,60,60,60,60,60,60,60,60,60,60,60,60,60,
60,60,60,60,60,60,60,60,60,60,60,60,60,60,60,60,
60,60,60,60,60,60,60,60,60,60,60,60,60,60,60,60,
60,60,60,60,60,60,60,60,60,60,60,60,60,60,60,60,
60,60,60,60,60,60,60,60,60,60,60,60,60,60,60,60,
60,60,60,60,60,60,60,60,60,60,60,60,60,60,60,60
</chunk>
   <chunk x="64" y="-48" width="16" height="16">
0,0,0,0,0,0,0,0,0,0,0,0,0,0,0,0,
0,0,0,0,0,0,0,0,0,0,0,0,0,0,0,0,
60,60,0,0,0,0,0,0,0,0,0,0,0,0,0,0,
60,60,0,0,0,0,0,0,0,0,0,0,0,0,0,0,
60,60,0,0,0,0,0,0,0,0,0,0,0,0,0,0,
60,60,0,0,0,0,0,0,0,0,0,0,0,0,0,0,
60,60,0,0,0,0,0,0,0,0,0,0,0,0,0,0,
60,60,0,0,0,0,0,0,0,0,0,0,0,0,0,0,
60,60,0,0,0,0,0,0,0,0,0,0,0,0,0,0,
60,60,0,0,0,0,0,0,0,0,0,0,0,0,0,0,
60,60,0,0,0,0,0,0,0,0,0,0,0,0,0,0,
60,60,0,0,0,0,0,0,0,0,0,0,0,0,0,0,
60,60,0,0,0,0,0,0,0,0,0,0,0,0,0,0,
60,60,0,0,0,0,0,0,0,0,0,0,0,0,0,0,
60,60,0,0,0,0,0,0,0,0,0,0,0,0,0,0,
60,60,0,0,0,0,0,0,0,0,0,0,0,0,0,0
</chunk>
   <chunk x="-48" y="-32" width="16" height="16">
0,0,60,60,60,60,60,60,60,60,60,60,60,60,60,60,
0,0,60,60,60,60,60,60,60,60,60,60,60,60,60,60,
0,0,60,60,60,60,60,60,60,60,60,60,60,60,60,60,
0,0,60,60,60,60,60,60,60,60,60,60,60,60,60,60,
0,0,60,60,60,60,60,60,60,60,60,60,60,60,60,60,
0,0,60,60,60,60,60,60,60,60,60,60,60,60,60,60,
0,0,60,60,60,60,60,60,60,60,60,60,60,60,60,60,
0,0,60,60,60,60,60,60,60,60,60,60,60,60,60,60,
0,0,60,60,60,60,60,60,60,60,60,60,60,60,60,60,
0,0,60,60,60,60,60,60,60,60,60,60,60,60,60,60,
0,0,60,60,60,60,60,60,60,60,60,60,60,60,60,60,
0,0,60,60,60,60,60,60,60,60,60,60,60,60,60,60,
0,0,60,60,60,60,60,60,60,60,60,60,60,60,60,60,
0,0,60,60,60,60,60,60,60,60,60,60,60,60,60,60,
0,0,60,60,60,60,60,60,60,60,60,60,60,60,60,60,
0,0,60,60,60,60,60,60,60,60,60,60,60,60,60,60
</chunk>
   <chunk x="-32" y="-32" width="16" height="16">
60,60,60,60,60,60,60,60,60,60,60,60,60,60,60,60,
60,60,60,60,60,60,60,60,60,60,60,60,60,60,60,60,
60,60,0,0,0,0,0,0,0,0,0,0,0,0,0,62,
60,60,0,0,0,0,0,0,0,0,0,0,0,0,0,0,
60,60,0,0,0,0,0,0,0,62,0,0,0,0,0,0,
60,60,0,0,0,0,60,0,0,0,0,0,0,0,0,0,
60,60,0,0,62,0,0,0,0,0,0,0,0,0,0,0,
60,60,0,0,0,0,0,0,0,0,0,0,0,0,0,0,
60,60,60,60,0,0,0,0,0,0,0,0,0,0,0,0,
60,60,0,62,0,0,62,0,0,0,0,0,0,0,0,0,
60,60,0,0,0,0,0,60,0,0,0,0,0,0,0,0,
60,60,0,0,0,0,0,0,0,0,0,0,0,0,0,0,
60,60,0,0,0,0,0,62,0,0,0,0,0,0,0,0,
60,60,0,0,0,0,0,0,60,0,0,0,0,0,0,0,
60,60,0,0,0,0,62,60,0,0,0,0,0,0,0,0,
60,60,0,0,0,60,0,0,0,0,0,0,0,0,0,0
</chunk>
   <chunk x="-16" y="-32" width="16" height="16">
60,60,60,60,60,60,60,60,60,60,60,60,60,60,60,60,
60,60,60,60,60,60,60,60,60,60,60,60,60,60,60,60,
0,0,0,62,0,0,0,0,0,0,0,0,0,0,0,0,
0,0,0,0,0,0,0,0,0,0,0,0,0,0,0,0,
0,0,0,0,0,0,0,0,0,0,0,0,0,0,0,0,
0,0,0,0,0,0,0,0,0,0,0,0,0,0,0,0,
0,0,0,0,0,0,0,0,0,0,0,0,0,0,0,0,
0,0,0,0,0,0,0,0,0,0,0,0,0,0,0,0,
0,0,0,0,0,0,60,0,0,0,0,0,0,0,0,0,
0,0,60,0,62,0,0,0,0,0,0,0,0,0,0,0,
0,0,0,0,0,0,0,0,0,0,0,0,0,0,0,0,
0,0,0,62,0,60,0,0,0,0,0,0,0,0,0,0,
62,0,0,0,0,0,0,0,0,0,0,0,0,0,0,0,
0,0,0,0,0,0,0,0,0,0,0,0,0,0,0,0,
0,0,0,0,0,0,0,0,0,0,0,0,0,0,0,0,
0,0,0,0,0,0,0,0,0,0,0,0,0,0,0,0
</chunk>
   <chunk x="0" y="-32" width="16" height="16">
60,60,60,60,60,60,60,60,60,60,60,60,60,60,60,60,
60,60,60,60,60,60,60,60,60,60,60,60,60,60,60,60,
0,0,0,0,0,0,0,0,0,0,0,0,0,0,0,0,
0,0,0,0,0,0,0,0,0,0,0,62,62,0,0,0,
0,0,0,62,0,0,0,0,0,0,0,0,0,0,0,0,
0,0,0,0,0,0,0,0,0,0,0,0,0,0,0,0,
0,0,0,0,0,0,0,0,0,0,0,0,0,0,0,0,
0,0,0,0,0,0,0,0,0,0,0,0,0,0,0,0,
0,0,0,0,0,0,0,0,0,0,0,0,0,0,0,0,
60,0,0,0,0,0,0,0,0,0,0,0,0,0,0,0,
0,0,62,0,0,0,0,0,0,0,0,0,0,0,0,0,
0,0,0,0,0,0,0,0,0,0,0,0,0,0,0,0,
0,0,0,0,0,0,0,0,0,0,0,0,0,0,0,0,
0,0,0,0,0,60,0,0,0,0,0,0,0,0,0,0,
0,0,0,0,0,62,0,0,0,0,0,0,0,0,0,0,
0,62,0,0,0,0,0,0,0,0,0,0,0,0,0,0
</chunk>
   <chunk x="16" y="-32" width="16" height="16">
60,60,60,60,60,60,60,60,60,60,60,60,60,60,60,60,
60,60,60,60,60,60,60,60,60,60,60,60,60,60,60,60,
0,0,0,0,0,0,0,0,0,0,0,0,0,0,0,0,
0,0,0,0,0,0,62,62,0,0,0,0,0,0,0,0,
0,0,0,0,0,0,0,0,0,0,0,0,0,0,62,0,
0,0,0,0,0,0,0,0,0,0,0,0,0,0,0,0,
0,0,0,0,0,0,0,0,0,0,0,0,0,0,0,0,
0,0,0,0,0,0,0,0,0,0,0,0,0,0,0,0,
0,0,0,0,0,0,0,0,0,0,0,0,0,0,0,0,
0,0,0,0,0,0,0,60,0,0,0,0,0,0,0,0,
0,0,0,0,0,0,62,0,0,0,0,0,0,0,0,0,
0,0,0,0,0,0,0,0,0,0,0,0,0,0,0,0,
0,0,0,0,0,0,0,0,0,0,0,0,0,0,0,0,
0,0,0,0,0,0,0,0,0,0,0,0,0,0,0,0,
0,0,0,0,0,0,0,0,0,59,0,0,0,0,59,0,
0,0,0,59,0,0,57,0,0,0,57,0,0,0,0,0
</chunk>
   <chunk x="32" y="-32" width="16" height="16">
60,60,60,60,60,60,60,60,60,60,60,60,60,60,60,60,
60,60,60,60,60,60,60,60,60,60,60,60,60,60,60,60,
0,0,0,0,0,0,0,0,0,0,0,0,0,0,0,0,
62,0,0,0,0,0,0,0,62,0,0,0,0,0,0,62,
0,0,0,0,0,0,0,0,0,0,0,0,0,0,0,0,
0,0,0,0,0,0,0,0,0,0,0,0,0,0,0,0,
0,0,0,0,0,0,0,0,0,0,0,0,0,0,0,0,
0,0,0,0,0,0,0,0,0,0,0,0,0,0,0,0,
0,0,0,0,0,0,0,0,0,0,0,0,0,0,0,0,
0,0,0,0,0,0,0,0,0,62,0,0,0,0,0,0,
0,0,0,0,0,0,0,0,0,0,0,0,0,0,0,0,
0,0,0,0,0,0,0,0,0,0,0,0,0,0,0,0,
0,0,0,0,0,0,0,0,0,0,0,0,0,0,0,0,
0,0,0,0,0,0,0,0,0,0,0,0,0,0,0,0,
0,0,59,0,0,0,0,0,0,0,0,0,0,0,0,0,
0,0,0,0,0,0,0,0,0,0,0,0,0,0,0,0
</chunk>
   <chunk x="48" y="-32" width="16" height="16">
60,60,60,60,60,60,60,60,60,60,60,60,60,60,60,60,
60,60,60,60,60,60,60,60,60,60,60,60,60,60,60,57,
0,0,60,60,60,60,60,60,60,60,60,60,60,57,57,57,
0,0,60,60,60,60,60,60,60,57,57,57,57,57,57,57,
0,0,60,60,60,60,60,60,57,57,57,57,57,57,57,57,
0,0,0,0,0,0,0,57,57,57,57,57,57,57,57,57,
0,0,60,60,60,60,60,57,57,57,57,57,57,57,57,57,
0,0,60,60,60,60,57,57,57,57,57,57,57,57,57,57,
0,0,60,60,60,57,57,57,57,57,57,57,57,57,57,57,
0,0,60,57,57,57,57,57,57,57,57,57,57,57,57,57,
0,0,57,57,57,57,57,57,57,57,57,57,57,57,57,57,
59,0,57,57,57,57,57,57,57,57,57,57,57,57,57,57,
0,0,57,57,57,57,57,57,57,57,57,57,57,57,57,57,
0,0,57,57,57,57,57,57,57,57,57,57,57,57,57,57,
0,0,57,57,57,57,57,57,57,57,57,57,57,57,57,57,
0,0,57,57,57,57,57,57,57,57,57,57,57,57,57,57
</chunk>
   <chunk x="64" y="-32" width="16" height="16">
60,60,0,0,0,0,0,0,0,0,0,0,0,0,0,0,
57,57,0,0,0,0,0,0,0,0,0,0,0,0,0,0,
57,57,0,0,0,0,0,0,0,0,0,0,0,0,0,0,
57,57,0,0,0,0,0,0,0,0,0,0,0,0,0,0,
57,57,0,0,0,0,0,0,0,0,0,0,0,0,0,0,
57,57,0,0,0,0,0,0,0,0,0,0,0,0,0,0,
57,57,0,0,0,0,0,0,0,0,0,0,0,0,0,0,
57,57,0,0,0,0,0,0,0,0,0,0,0,0,0,0,
57,57,0,0,0,0,0,0,0,0,0,0,0,0,0,0,
57,57,0,0,0,0,0,0,0,0,0,0,0,0,0,0,
57,57,0,0,0,0,0,0,0,0,0,0,0,0,0,0,
57,57,0,0,0,0,0,0,0,0,0,0,0,0,0,0,
57,57,0,0,0,0,0,0,0,0,0,0,0,0,0,0,
57,57,0,0,0,0,0,0,0,0,0,0,0,0,0,0,
57,57,0,0,0,0,0,0,0,0,0,0,0,0,0,0,
57,57,0,0,0,0,0,0,0,0,0,0,0,0,0,0
</chunk>
   <chunk x="-48" y="-16" width="16" height="16">
0,0,60,60,60,60,60,60,60,60,60,60,60,60,60,60,
0,0,60,60,60,60,60,60,60,60,60,60,60,60,60,60,
0,0,60,60,60,60,60,60,60,60,60,60,60,60,60,60,
0,0,60,60,60,60,60,60,60,60,60,60,60,60,60,60,
0,0,60,60,60,60,60,60,60,60,60,60,60,60,60,60,
0,0,60,60,60,60,60,60,60,60,60,60,60,60,60,60,
0,0,60,60,60,60,60,60,60,60,60,60,60,60,60,60,
0,0,60,60,60,60,60,60,60,60,60,60,60,60,60,60,
0,0,60,60,60,60,60,60,60,60,60,60,60,60,60,60,
0,0,60,60,60,60,60,60,60,60,60,60,60,60,60,60,
0,0,60,60,60,60,60,60,60,60,60,60,60,60,60,60,
0,0,60,60,60,60,60,60,60,60,60,60,60,60,60,60,
0,0,60,60,60,60,60,60,60,60,60,60,60,60,60,60,
0,0,60,60,60,60,60,60,60,60,60,60,60,60,60,60,
0,0,60,60,60,60,60,60,60,60,60,60,60,60,60,60,
0,0,60,60,60,60,60,60,60,60,60,60,60,60,60,60
</chunk>
   <chunk x="-32" y="-16" width="16" height="16">
60,60,0,0,0,0,0,62,0,0,0,0,0,0,0,0,
60,60,0,0,0,0,0,0,0,0,0,0,0,0,0,0,
60,60,0,0,0,0,0,0,0,0,0,0,0,0,0,0,
60,60,0,0,0,0,0,0,0,0,0,0,0,0,0,0,
60,60,0,0,0,0,0,0,0,0,0,0,0,0,0,0,
60,60,0,0,0,0,0,0,0,0,0,0,0,0,0,0,
60,60,0,0,0,0,0,0,0,0,0,0,0,0,0,0,
60,60,0,0,0,0,62,0,0,0,0,0,0,0,0,0,
60,60,0,0,0,0,0,0,0,0,0,0,0,0,0,0,
60,60,0,0,0,0,60,60,0,0,0,0,0,0,0,0,
60,60,0,0,0,0,0,0,0,0,0,0,0,0,0,0,
60,60,0,0,0,0,0,0,0,0,0,0,0,0,0,0,
60,60,0,0,0,0,62,0,0,0,0,0,0,0,0,0,
60,60,0,0,0,0,0,60,0,0,0,0,0,0,0,0,
60,60,0,0,60,0,0,0,0,0,0,0,0,0,0,0,
60,60,0,0,60,0,0,0,0,0,0,0,0,0,0,0
</chunk>
   <chunk x="-16" y="-16" width="16" height="16">
0,0,0,0,0,0,0,0,0,0,0,0,0,0,0,0,
0,60,0,0,0,0,0,0,0,0,0,0,0,0,0,0,
0,60,62,0,0,0,0,0,0,0,0,0,0,0,0,0,
0,0,0,0,0,0,0,0,0,0,0,0,0,0,0,0,
0,0,0,0,0,0,0,0,0,0,0,0,0,0,0,0,
0,0,0,0,0,0,0,0,0,0,0,0,0,0,0,0,
0,0,0,0,0,0,0,0,0,0,0,0,0,0,0,0,
0,0,0,0,0,0,0,0,0,0,0,0,0,0,0,0,
0,0,0,0,0,0,0,0,0,0,0,0,0,0,0,0,
0,0,0,0,0,0,0,0,0,0,0,0,0,0,0,0,
0,0,0,0,0,0,0,0,0,0,0,60,0,0,0,0,
0,0,0,0,0,0,0,0,0,0,0,0,62,0,0,0,
0,62,0,0,0,0,0,0,0,0,0,0,0,0,0,0,
60,0,0,0,60,0,0,0,0,0,0,0,0,0,0,0,
0,0,0,0,60,0,0,0,0,0,0,0,0,0,0,0,
0,0,0,0,0,0,0,0,0,0,0,0,0,0,0,62
</chunk>
   <chunk x="0" y="-16" width="16" height="16">
0,0,0,0,0,0,0,0,0,0,0,0,0,0,0,0,
62,0,60,0,0,0,0,0,0,0,0,0,0,0,0,0,
0,0,0,62,0,0,0,0,0,0,0,0,0,0,0,0,
0,0,0,0,0,0,0,0,0,0,0,0,0,0,0,0,
0,0,0,0,0,0,0,0,0,0,0,0,0,0,0,0,
0,0,0,0,0,0,0,0,0,0,0,0,0,0,0,0,
0,0,0,0,0,0,0,0,0,0,0,0,0,0,0,0,
0,0,0,0,0,0,0,0,0,0,0,0,0,0,0,0,
0,0,0,0,0,0,0,0,0,0,0,0,0,0,0,0,
0,0,0,0,0,0,0,0,0,0,0,0,0,0,0,0,
0,0,0,0,0,0,0,0,0,0,0,0,0,0,0,0,
0,0,0,0,0,60,0,0,0,0,0,0,0,0,0,0,
0,0,0,0,0,0,0,0,0,0,0,0,0,0,0,0,
0,0,0,0,62,0,0,0,0,0,0,0,0,0,0,0,
0,0,0,60,0,0,0,0,0,0,0,0,0,0,0,0,
0,0,0,0,0,0,0,0,0,0,0,0,0,0,0,0
</chunk>
   <chunk x="16" y="-16" width="16" height="16">
0,0,0,0,0,0,0,0,0,0,0,0,0,0,0,0,
0,0,0,0,0,0,0,59,0,0,0,0,59,0,0,0,
0,0,59,0,0,0,0,0,0,0,0,0,0,0,0,0,
0,0,0,0,0,0,0,0,0,0,0,0,0,0,0,0,
0,0,0,0,0,0,0,0,0,0,0,0,0,0,0,0,
0,0,0,0,0,0,0,0,0,0,0,0,0,0,0,0,
0,0,0,0,0,0,0,0,0,0,0,0,0,0,0,0,
0,0,0,0,0,0,0,0,0,0,0,0,0,0,0,0,
0,0,0,0,0,0,0,57,0,0,0,0,0,0,0,0,
0,0,0,0,57,0,59,0,0,0,59,0,0,0,0,0,
0,0,0,0,0,59,0,0,0,0,0,57,0,0,0,0,
0,0,0,0,0,0,0,0,0,0,0,0,0,0,0,0,
0,0,0,0,0,57,0,0,0,0,0,0,0,0,0,0,
0,0,0,0,0,0,59,0,0,0,0,0,0,0,0,0,
0,0,0,0,0,0,0,0,0,0,0,0,0,0,0,0,
0,0,0,0,0,0,0,0,0,0,0,0,0,0,0,0
</chunk>
   <chunk x="32" y="-16" width="16" height="16">
0,0,0,0,0,0,0,0,0,0,0,0,0,0,0,0,
0,0,0,0,0,0,0,0,0,0,0,0,0,0,0,0,
0,0,0,0,0,0,0,0,0,0,0,0,0,0,0,0,
0,0,0,0,0,0,0,0,0,0,0,0,0,0,0,0,
0,0,0,0,0,0,0,0,0,0,0,0,0,0,0,0,
0,0,0,0,0,0,0,0,0,0,0,0,0,0,0,0,
0,0,0,0,0,0,0,0,0,0,0,0,59,0,0,0,
0,0,0,0,0,0,0,0,0,0,0,0,0,0,0,0,
0,0,0,0,0,0,0,0,0,0,0,0,0,0,0,0,
0,0,0,0,0,0,0,0,0,0,0,0,0,0,0,0,
0,0,0,0,0,0,0,0,0,0,0,0,0,0,0,0,
0,0,0,0,0,0,0,0,0,0,0,0,59,0,0,0,
0,0,0,0,0,0,0,0,57,0,0,0,0,0,0,57,
0,0,0,0,0,0,0,59,0,0,0,59,0,0,0,59,
0,0,0,0,0,0,0,0,0,0,0,0,0,0,0,0,
0,0,0,0,0,0,0,0,0,57,0,0,0,0,0,0
</chunk>
   <chunk x="48" y="-16" width="16" height="16">
0,0,57,57,57,57,57,57,57,57,57,57,57,57,57,57,
59,0,57,57,57,57,57,57,57,57,57,57,57,57,57,57,
0,0,57,57,57,57,57,57,57,57,57,57,57,57,57,57,
0,0,57,57,57,57,57,57,57,57,57,57,57,57,57,57,
0,0,57,57,57,57,57,57,57,57,57,57,57,57,57,57,
0,0,57,57,57,57,57,57,57,57,57,57,57,57,57,57,
0,0,57,57,57,57,57,57,57,57,57,57,57,57,57,57,
0,0,57,57,57,57,57,57,57,57,57,57,57,57,57,57,
0,0,57,57,57,57,57,57,57,57,57,57,57,57,57,57,
0,0,57,57,57,57,57,57,57,57,57,57,57,57,57,57,
0,0,57,57,57,57,57,57,57,57,57,57,57,57,57,57,
0,0,57,57,57,57,57,57,57,57,57,57,57,57,57,57,
0,0,57,57,57,57,57,57,57,57,57,57,57,57,57,57,
0,0,57,57,57,57,57,57,57,57,57,57,57,57,57,57,
0,0,57,57,57,57,57,57,57,57,57,57,57,57,57,57,
0,0,57,57,57,57,57,57,57,57,57,57,57,57,57,57
</chunk>
   <chunk x="64" y="-16" width="16" height="16">
57,57,0,0,0,0,0,0,0,0,0,0,0,0,0,0,
57,57,0,0,0,0,0,0,0,0,0,0,0,0,0,0,
57,57,0,0,0,0,0,0,0,0,0,0,0,0,0,0,
57,57,0,0,0,0,0,0,0,0,0,0,0,0,0,0,
57,57,0,0,0,0,0,0,0,0,0,0,0,0,0,0,
57,57,0,0,0,0,0,0,0,0,0,0,0,0,0,0,
57,57,0,0,0,0,0,0,0,0,0,0,0,0,0,0,
57,57,0,0,0,0,0,0,0,0,0,0,0,0,0,0,
57,57,0,0,0,0,0,0,0,0,0,0,0,0,0,0,
57,57,0,0,0,0,0,0,0,0,0,0,0,0,0,0,
57,57,0,0,0,0,0,0,0,0,0,0,0,0,0,0,
57,57,0,0,0,0,0,0,0,0,0,0,0,0,0,0,
57,57,0,0,0,0,0,0,0,0,0,0,0,0,0,0,
57,57,0,0,0,0,0,0,0,0,0,0,0,0,0,0,
57,57,0,0,0,0,0,0,0,0,0,0,0,0,0,0,
57,57,0,0,0,0,0,0,0,0,0,0,0,0,0,0
</chunk>
   <chunk x="-48" y="0" width="16" height="16">
0,0,60,60,60,60,60,60,60,60,60,60,60,60,60,60,
0,0,60,60,60,60,60,60,60,60,60,60,60,60,60,60,
0,0,60,60,60,60,60,60,60,60,60,60,60,60,60,60,
0,0,60,60,60,60,60,60,60,60,60,60,60,60,60,60,
0,0,60,60,60,60,60,60,60,60,60,60,60,60,60,60,
0,0,60,60,60,60,60,60,60,60,60,60,60,60,60,60,
0,0,60,60,60,60,60,60,60,60,60,60,60,60,60,60,
0,0,0,0,0,0,0,0,0,0,0,0,0,0,0,0,
0,0,0,0,0,0,0,0,0,0,0,0,0,0,0,0,
0,0,60,60,60,60,60,60,60,60,60,60,60,60,60,60,
0,0,60,60,60,60,60,60,60,60,60,60,60,60,60,60,
0,0,60,60,60,60,60,60,60,60,60,60,60,60,60,60,
0,0,60,60,60,60,60,60,60,60,60,60,60,60,60,60,
0,0,60,60,60,60,60,60,60,60,60,60,60,60,60,60,
0,0,60,60,60,60,60,60,60,60,60,60,60,60,60,60,
0,0,60,60,60,60,60,60,60,60,60,60,60,60,60,60
</chunk>
   <chunk x="-32" y="0" width="16" height="16">
60,60,0,62,0,0,0,62,0,0,0,0,0,0,0,0,
60,60,0,0,0,0,0,0,0,0,0,0,0,0,0,0,
60,60,0,0,0,0,0,0,0,0,0,0,0,0,60,0,
60,60,0,0,0,60,0,0,60,0,0,0,0,0,0,0,
60,60,0,0,0,62,0,62,0,0,0,0,0,0,0,0,
60,60,0,0,0,0,0,0,0,0,0,0,0,0,0,0,
60,60,0,0,0,0,0,0,0,0,0,0,0,0,0,0,
0,0,0,0,0,0,0,0,0,0,0,0,0,0,0,0,
0,0,0,0,0,0,0,0,0,0,0,0,0,0,0,0,
60,60,0,0,0,0,0,0,0,0,0,0,0,0,0,0,
60,60,0,0,0,0,0,0,0,0,0,0,0,0,0,0,
60,60,0,0,0,0,0,60,0,62,60,0,0,0,0,0,
60,60,0,0,0,0,0,0,0,0,0,0,0,0,0,0,
60,60,0,0,0,0,0,0,62,0,60,0,0,0,0,0,
60,60,0,0,0,0,0,0,0,0,62,62,0,0,0,0,
60,60,0,0,0,0,0,0,0,0,0,0,0,0,0,0
</chunk>
   <chunk x="-16" y="0" width="16" height="16">
62,0,0,0,0,0,0,0,0,0,0,0,0,0,0,0,
0,0,0,0,0,0,0,0,62,0,0,0,0,0,0,0,
0,0,0,0,0,0,60,0,0,0,0,0,0,0,0,0,
0,0,0,0,0,0,60,60,0,0,0,0,0,0,0,0,
0,60,0,0,0,62,0,0,0,0,0,0,0,0,0,0,
0,0,0,0,0,0,0,0,0,0,0,0,0,0,0,0,
0,0,0,0,0,0,0,0,0,0,0,0,0,0,0,0,
0,0,0,0,0,0,0,0,0,0,0,0,0,0,0,0,
0,0,0,0,0,0,0,0,0,0,0,0,0,0,0,0,
0,0,0,0,0,0,0,0,0,0,0,0,0,0,0,0,
0,0,0,0,0,0,0,0,0,0,0,0,0,0,0,0,
0,0,0,0,0,0,0,0,0,0,0,0,0,0,0,0,
0,0,0,0,0,0,0,0,0,0,0,0,0,0,0,0,
0,0,0,0,62,0,0,0,0,0,0,0,0,0,0,0,
0,0,0,60,0,0,62,0,0,0,0,0,0,0,0,0,
0,0,0,0,0,0,0,0,0,0,0,0,0,0,0,0
</chunk>
   <chunk x="0" y="0" width="16" height="16">
0,0,62,0,0,0,0,0,0,0,0,0,0,0,0,0,
60,0,0,0,0,0,0,0,0,0,0,0,0,0,0,0,
0,0,0,0,0,0,0,0,0,0,0,0,0,0,0,0,
62,0,0,0,0,0,0,0,0,0,0,0,0,0,0,0,
0,0,0,0,0,0,0,0,0,0,0,0,0,0,0,0,
0,0,0,0,0,0,0,0,0,0,0,0,0,0,0,0,
0,0,0,0,0,0,0,0,0,0,0,0,0,0,0,0,
0,0,0,0,0,0,0,0,0,0,0,0,0,0,0,0,
0,0,0,0,0,0,0,0,0,0,0,0,0,0,0,0,
0,0,0,0,0,0,0,0,0,0,0,0,0,0,0,0,
0,0,0,0,0,0,0,0,0,0,0,0,0,0,0,0,
0,0,0,0,0,0,0,0,0,0,0,0,0,0,0,0,
0,0,0,60,62,0,0,0,0,0,0,0,0,0,0,0,
62,0,62,0,0,0,0,0,0,0,0,0,0,0,0,0,
0,0,0,0,0,0,0,0,0,0,0,0,0,0,0,0,
62,0,0,62,0,0,0,0,0,0,0,0,0,0,0,0
</chunk>
   <chunk x="16" y="0" width="16" height="16">
0,0,0,0,0,0,0,0,0,0,0,0,0,0,0,0,
0,0,0,0,0,0,0,0,0,0,0,59,0,0,0,0,
0,0,0,0,0,0,0,0,0,0,0,0,0,0,0,0,
0,0,0,0,0,0,0,0,0,0,0,57,0,0,0,0,
0,0,0,0,0,0,0,0,0,0,59,0,0,0,0,0,
0,0,0,0,0,0,0,0,0,0,0,0,0,0,0,0,
0,0,0,0,0,0,0,0,0,0,0,0,0,0,0,0,
0,0,0,0,0,0,0,0,0,0,0,0,0,0,0,0,
0,0,0,0,0,0,0,0,0,0,0,0,0,0,0,0,
0,0,0,0,0,0,0,0,0,0,0,0,0,0,0,0,
0,0,0,0,0,0,0,0,0,0,0,0,0,0,0,0,
0,0,0,0,0,0,0,0,0,0,0,0,0,0,0,0,
0,0,0,0,0,0,57,0,0,0,0,0,0,0,0,0,
0,0,0,0,0,59,0,0,0,0,0,0,0,0,0,0,
0,0,0,0,0,0,0,0,0,0,0,0,0,0,0,0,
0,0,0,0,0,57,59,0,0,0,0,0,0,0,0,0
</chunk>
   <chunk x="32" y="0" width="16" height="16">
0,0,0,0,0,0,0,0,0,0,0,0,0,0,59,57,
0,0,0,0,0,0,0,0,0,0,0,0,0,0,0,0,
0,0,0,0,0,0,0,0,0,0,0,0,59,0,0,0,
0,0,0,0,0,0,0,0,0,0,0,0,0,0,0,0,
0,0,0,0,0,0,0,0,0,0,0,0,0,0,57,0,
0,0,0,0,0,0,0,0,0,0,0,0,0,0,0,0,
0,0,0,0,0,0,0,0,0,0,0,0,0,0,0,0,
0,0,0,0,0,0,0,0,0,0,0,0,0,0,0,0,
0,0,0,0,0,0,0,0,0,0,0,0,0,0,0,0,
0,0,0,0,0,0,0,0,0,0,0,0,0,0,0,0,
0,0,0,0,0,0,0,0,0,0,0,0,0,0,0,0,
0,0,0,0,0,0,0,0,0,0,0,0,0,0,0,0,
0,0,0,0,0,0,0,0,0,0,0,0,0,0,0,0,
0,0,0,0,0,57,59,0,0,0,0,0,0,0,0,0,
0,0,0,0,0,0,0,0,0,0,0,0,0,0,0,0,
0,0,0,0,0,0,0,0,0,0,0,0,57,0,0,0
</chunk>
   <chunk x="48" y="0" width="16" height="16">
0,0,57,57,57,57,57,57,57,57,57,57,57,57,57,57,
0,0,57,57,57,57,57,57,57,57,57,57,57,57,57,57,
0,0,57,57,57,57,57,57,57,57,57,57,57,57,57,57,
0,0,57,57,57,57,57,57,57,57,57,57,57,57,57,57,
0,0,57,57,57,57,57,57,57,57,57,57,57,57,57,57,
0,0,57,57,57,57,57,57,57,57,57,57,57,57,57,57,
0,0,57,57,57,57,57,57,57,57,57,57,57,57,57,57,
0,0,0,0,0,0,0,0,0,0,0,0,0,0,0,0,
0,0,0,0,0,0,0,0,0,0,0,0,0,0,0,0,
59,0,57,57,57,57,57,57,57,57,57,57,57,57,57,57,
0,0,57,57,57,57,57,57,57,57,57,57,57,57,57,57,
0,0,57,57,57,57,57,57,57,57,57,57,57,57,57,57,
0,0,57,57,57,57,57,57,57,57,57,57,57,57,57,57,
0,0,57,57,57,57,57,57,57,57,57,57,57,57,57,57,
0,0,57,57,57,57,57,57,57,57,57,57,57,57,57,57,
0,0,57,57,57,57,57,57,57,57,57,57,57,57,57,57
</chunk>
   <chunk x="64" y="0" width="16" height="16">
57,57,0,0,0,0,0,0,0,0,0,0,0,0,0,0,
57,57,0,0,0,0,0,0,0,0,0,0,0,0,0,0,
57,57,0,0,0,0,0,0,0,0,0,0,0,0,0,0,
57,57,0,0,0,0,0,0,0,0,0,0,0,0,0,0,
57,57,0,0,0,0,0,0,0,0,0,0,0,0,0,0,
57,57,0,0,0,0,0,0,0,0,0,0,0,0,0,0,
57,57,0,0,0,0,0,0,0,0,0,0,0,0,0,0,
0,0,0,0,0,0,0,0,0,0,0,0,0,0,0,0,
0,0,0,0,0,0,0,0,0,0,0,0,0,0,0,0,
57,57,0,0,0,0,0,0,0,0,0,0,0,0,0,0,
57,57,0,0,0,0,0,0,0,0,0,0,0,0,0,0,
57,57,0,0,0,0,0,0,0,0,0,0,0,0,0,0,
57,57,0,0,0,0,0,0,0,0,0,0,0,0,0,0,
57,57,0,0,0,0,0,0,0,0,0,0,0,0,0,0,
57,57,0,0,0,0,0,0,0,0,0,0,0,0,0,0,
57,57,0,0,0,0,0,0,0,0,0,0,0,0,0,0
</chunk>
   <chunk x="-48" y="16" width="16" height="16">
0,0,60,60,60,60,60,60,60,60,60,60,60,60,60,60,
0,0,60,60,60,60,60,60,60,60,60,60,60,60,60,60,
0,0,60,60,60,60,60,60,60,60,60,60,60,60,60,60,
0,0,60,60,60,60,60,60,60,60,60,60,60,60,60,60,
0,0,60,60,60,60,60,60,60,60,60,60,60,60,60,60,
0,0,60,60,60,60,60,60,60,60,60,60,60,60,60,60,
0,0,60,60,60,60,60,60,60,60,60,60,60,60,60,60,
0,0,60,60,60,60,60,60,60,60,60,60,60,60,60,60,
0,0,60,60,60,60,60,60,60,60,60,60,60,60,60,60,
0,0,60,60,60,60,60,60,60,60,60,60,60,60,60,60,
0,0,60,60,60,60,60,60,60,60,60,60,60,60,60,60,
0,0,60,60,60,60,60,60,60,60,60,60,60,60,60,60,
0,0,60,60,60,60,60,60,60,60,60,60,60,60,60,60,
0,0,60,60,60,60,60,60,60,60,60,60,60,60,60,60,
0,0,60,60,60,60,60,60,60,60,60,60,60,60,60,60,
0,0,60,60,60,60,60,60,60,60,60,60,60,60,60,60
</chunk>
   <chunk x="-32" y="16" width="16" height="16">
60,60,0,0,0,0,0,0,0,0,0,0,0,0,0,0,
60,60,0,0,0,0,0,0,0,0,0,0,0,0,0,0,
60,60,0,0,0,0,0,0,0,0,0,0,0,0,0,0,
60,60,0,0,0,0,0,0,0,0,0,0,0,0,0,0,
60,60,0,0,0,0,0,62,0,0,0,0,0,0,0,0,
60,60,0,0,0,0,0,0,0,60,0,0,0,0,0,0,
60,60,0,0,0,0,0,60,0,62,0,0,0,0,0,0,
60,60,0,0,0,0,0,62,0,0,0,0,0,0,0,0,
60,60,0,0,0,0,0,0,0,62,0,0,0,0,0,0,
60,60,0,0,0,0,0,0,0,0,0,0,0,0,0,0,
60,60,0,0,0,0,0,0,0,0,0,0,0,0,0,0,
60,60,0,0,0,0,0,0,60,0,0,0,0,0,0,0,
60,60,0,0,0,0,0,0,0,62,0,0,0,0,0,0,
60,60,0,0,0,0,0,0,0,0,0,0,0,0,0,0,
60,60,0,0,62,0,0,0,0,0,0,0,0,0,0,0,
60,60,0,60,0,0,0,0,0,0,0,0,0,0,0,0
</chunk>
   <chunk x="-16" y="16" width="16" height="16">
0,0,0,0,0,0,0,0,0,0,0,0,0,0,0,0,
0,0,0,0,0,0,0,0,0,0,0,0,0,0,0,0,
0,0,0,0,0,0,0,0,0,0,0,0,0,0,0,0,
0,0,0,0,0,0,0,0,0,0,0,0,0,0,0,0,
0,0,0,0,0,0,0,62,0,0,0,0,0,0,0,0,
0,0,0,0,0,0,0,0,0,0,0,0,0,0,0,0,
0,0,0,0,0,0,0,60,0,62,0,0,0,0,0,0,
0,0,0,0,0,62,0,62,0,0,0,0,0,0,0,0,
0,0,0,0,0,0,0,0,0,0,0,0,0,0,0,0,
0,0,0,0,0,0,0,0,0,0,0,0,0,0,0,0,
0,0,0,0,0,62,0,0,0,0,0,0,0,0,0,0,
0,0,0,0,0,0,0,0,0,0,0,59,0,0,0,0,
0,0,0,0,0,0,0,0,0,0,0,0,0,0,0,0,
0,0,0,0,0,0,0,0,0,0,0,0,0,57,0,59,
0,0,0,0,0,0,0,0,0,0,0,0,0,57,0,0,
0,0,0,0,0,0,0,0,0,0,0,0,0,0,0,0
</chunk>
   <chunk x="0" y="16" width="16" height="16">
0,60,0,0,0,0,0,0,0,0,59,0,0,0,0,0,
0,0,0,0,0,0,0,0,0,0,0,0,0,0,0,0,
0,0,0,0,0,0,0,0,0,0,0,0,0,0,0,0,
0,0,0,0,0,0,0,0,0,0,0,0,0,0,0,0,
0,0,0,0,59,0,0,0,0,0,0,0,0,0,0,0,
0,0,0,0,0,0,0,0,0,0,0,0,0,0,0,0,
0,0,0,0,0,0,0,0,0,0,0,0,0,0,0,0,
0,0,0,0,0,0,0,0,0,0,0,0,0,0,0,0,
0,0,0,0,0,0,0,0,0,0,0,0,0,0,0,0,
0,0,0,0,0,0,0,0,0,0,0,0,0,0,0,0,
57,57,0,0,0,0,0,0,0,0,0,0,0,0,0,0,
0,0,0,0,0,0,0,0,0,0,0,57,0,0,0,0,
0,0,0,0,0,0,0,0,0,0,0,0,0,0,0,0,
0,0,59,0,0,0,0,0,0,0,0,0,0,0,0,0,
0,0,0,0,0,0,0,0,0,0,0,0,0,0,0,0,
59,0,0,0,0,0,0,0,0,0,0,0,0,0,0,0
</chunk>
   <chunk x="16" y="16" width="16" height="16">
0,57,0,59,0,0,0,0,0,0,0,0,0,0,0,0,
0,0,0,57,0,0,0,57,0,0,0,0,0,0,0,0,
0,0,0,0,0,0,59,0,0,0,0,0,0,0,0,0,
0,0,0,0,0,0,0,0,0,0,0,0,0,0,0,0,
0,0,0,0,0,0,0,0,0,0,0,0,0,0,0,0,
0,0,0,0,0,0,0,0,0,0,0,0,0,0,0,0,
0,0,0,0,0,0,0,0,0,0,0,0,0,0,0,0,
0,0,0,0,0,0,0,0,0,0,0,0,0,0,0,0,
0,0,0,0,0,0,0,0,0,0,0,0,0,0,0,0,
0,0,0,0,0,0,0,0,0,0,0,0,0,0,0,0,
0,0,0,0,0,0,0,0,0,0,0,0,0,0,0,0,
0,0,0,0,0,0,0,0,0,0,0,0,0,0,0,0,
0,59,0,0,0,0,0,0,0,0,0,0,0,0,0,0,
0,0,0,0,0,0,0,0,0,0,0,0,0,0,0,0,
0,0,0,0,0,0,0,0,0,59,0,0,0,0,0,0,
0,0,0,0,0,0,0,0,0,0,0,0,0,0,0,0
</chunk>
   <chunk x="32" y="16" width="16" height="16">
0,0,0,0,0,0,0,0,0,0,0,59,57,0,0,0,
0,0,0,0,0,0,59,0,0,0,0,0,0,0,0,0,
0,0,0,0,0,0,0,0,0,0,0,0,0,0,0,0,
0,0,0,0,0,0,0,0,0,0,0,0,0,0,0,0,
0,0,0,0,0,0,0,0,0,0,0,0,0,0,0,0,
0,0,0,0,0,0,0,0,0,57,0,0,0,0,0,0,
0,0,0,0,0,0,0,0,0,59,0,0,59,0,0,0,
0,0,0,0,0,0,0,0,0,0,0,0,0,0,0,0,
0,0,0,0,0,0,0,0,0,0,0,0,0,0,0,0,
0,0,0,0,0,0,0,0,0,0,0,0,0,0,0,0,
0,0,0,0,0,0,0,0,0,0,0,0,0,0,0,0,
0,0,0,0,0,0,0,0,0,0,0,0,0,0,0,0,
0,0,0,0,0,0,0,0,0,0,0,0,0,0,0,0,
0,0,0,0,0,0,0,0,0,0,0,0,0,0,0,0,
0,0,0,0,0,0,0,0,0,0,0,0,0,0,0,0,
0,0,0,0,0,0,0,0,0,0,0,0,0,0,0,0
</chunk>
   <chunk x="48" y="16" width="16" height="16">
0,0,57,57,57,57,57,57,57,57,57,57,57,57,57,57,
0,0,57,57,57,57,57,57,57,57,57,57,57,57,57,57,
59,0,57,57,57,57,57,57,57,57,57,57,57,57,57,57,
0,0,57,57,57,57,57,57,57,57,57,57,57,57,57,57,
0,0,57,57,57,57,57,57,57,57,57,57,57,57,57,57,
0,0,57,57,57,57,57,57,57,57,57,57,57,57,57,57,
0,0,57,57,57,57,57,57,57,57,57,57,57,57,57,57,
0,0,57,57,57,57,57,57,57,57,57,57,57,57,57,57,
0,0,57,57,57,57,57,57,57,57,57,57,57,57,57,57,
59,0,57,57,57,57,57,57,57,57,57,57,57,57,57,57,
0,0,57,57,57,57,57,57,57,57,57,57,57,57,57,57,
0,0,57,57,57,57,57,57,57,57,57,57,57,57,57,57,
0,0,57,57,57,57,57,57,57,57,57,57,57,57,57,57,
0,0,57,57,57,57,57,57,57,57,57,57,57,57,57,57,
0,0,57,57,57,57,57,57,57,57,57,57,57,57,57,57,
0,0,57,57,57,57,57,57,57,57,57,57,57,57,57,57
</chunk>
   <chunk x="64" y="16" width="16" height="16">
57,57,0,0,0,0,0,0,0,0,0,0,0,0,0,0,
57,57,0,0,0,0,0,0,0,0,0,0,0,0,0,0,
57,57,0,0,0,0,0,0,0,0,0,0,0,0,0,0,
57,57,0,0,0,0,0,0,0,0,0,0,0,0,0,0,
57,57,0,0,0,0,0,0,0,0,0,0,0,0,0,0,
57,57,0,0,0,0,0,0,0,0,0,0,0,0,0,0,
57,57,0,0,0,0,0,0,0,0,0,0,0,0,0,0,
57,57,0,0,0,0,0,0,0,0,0,0,0,0,0,0,
57,57,0,0,0,0,0,0,0,0,0,0,0,0,0,0,
57,57,0,0,0,0,0,0,0,0,0,0,0,0,0,0,
57,57,0,0,0,0,0,0,0,0,0,0,0,0,0,0,
57,57,0,0,0,0,0,0,0,0,0,0,0,0,0,0,
57,57,0,0,0,0,0,0,0,0,0,0,0,0,0,0,
57,57,0,0,0,0,0,0,0,0,0,0,0,0,0,0,
57,57,0,0,0,0,0,0,0,0,0,0,0,0,0,0,
57,57,0,0,0,0,0,0,0,0,0,0,0,0,0,0
</chunk>
   <chunk x="-48" y="32" width="16" height="16">
0,0,60,60,60,60,60,60,60,60,60,60,60,60,60,60,
0,0,60,60,60,60,60,60,60,60,60,60,60,60,60,60,
0,0,60,60,60,60,60,60,60,60,60,60,60,60,60,60,
0,0,60,60,60,60,60,60,60,60,60,60,60,60,60,60,
0,0,60,60,60,60,60,60,60,60,60,60,60,60,60,60,
0,0,60,60,60,60,60,60,60,60,60,60,60,60,60,60,
0,0,60,60,60,60,60,60,60,60,60,60,60,60,60,60,
0,0,60,60,60,60,60,60,60,60,60,60,60,60,60,60,
0,0,60,60,60,60,60,60,60,60,60,60,60,60,60,60,
0,0,60,60,60,60,60,60,60,60,60,60,60,60,60,60,
0,0,60,60,60,60,60,60,60,60,60,60,60,60,60,60,
0,0,60,60,60,60,60,60,60,60,60,60,60,60,60,60,
0,0,60,60,60,60,60,60,60,60,60,60,60,60,60,60,
0,0,60,60,60,60,60,60,60,60,60,60,60,60,60,60,
0,0,60,60,60,60,60,60,60,60,60,60,60,60,60,60,
0,0,60,60,60,60,60,60,60,60,60,60,60,60,60,60
</chunk>
   <chunk x="-32" y="32" width="16" height="16">
60,60,0,60,62,0,0,0,0,0,0,0,0,0,0,0,
60,60,0,0,0,0,0,0,0,0,0,0,0,0,0,0,
60,60,0,0,0,0,0,0,0,0,0,0,0,0,0,0,
60,60,0,0,0,0,0,0,0,0,0,0,0,0,0,0,
60,60,0,0,0,0,0,0,0,0,0,0,0,0,0,62,
60,60,0,0,0,62,0,62,0,0,0,0,0,0,0,0,
60,60,0,0,0,0,60,0,0,0,0,0,0,0,0,0,
60,60,0,0,0,62,60,0,0,0,0,0,0,0,0,0,
60,60,0,0,0,0,0,0,0,0,0,0,0,0,0,0,
60,60,0,0,0,0,0,0,0,0,0,0,0,0,0,0,
60,60,0,0,0,0,0,0,0,0,0,0,0,0,0,0,
60,60,0,0,0,0,0,0,0,0,0,0,0,0,0,0,
60,60,0,0,62,0,0,0,0,62,0,0,0,0,0,0,
60,60,0,62,0,0,0,0,0,0,0,0,0,0,0,0,
60,60,0,0,0,62,0,0,0,60,60,0,0,0,60,0,
60,60,0,60,0,62,0,0,0,0,0,0,62,0,0,62
</chunk>
   <chunk x="-16" y="32" width="16" height="16">
0,0,0,0,0,0,0,0,59,0,0,0,0,0,0,0,
0,0,0,0,0,0,0,0,0,0,0,0,0,0,0,0,
0,0,0,0,0,0,0,0,0,0,0,0,0,0,0,0,
0,0,0,0,0,0,0,0,0,0,0,0,0,0,0,0,
60,0,0,0,0,0,0,0,0,0,0,0,0,0,0,0,
0,0,0,0,0,0,0,0,0,0,0,59,0,0,0,0,
62,0,0,0,0,0,0,0,0,0,0,0,0,0,0,0,
0,0,0,0,0,62,0,62,0,0,0,0,0,0,0,0,
0,0,0,0,0,0,60,0,0,0,0,0,0,0,0,0,
0,0,0,0,0,62,60,0,0,0,0,0,0,0,0,0,
0,0,0,0,0,62,0,0,0,0,0,0,0,0,0,0,
0,0,0,0,0,0,0,0,0,0,0,0,0,0,0,0,
0,0,0,0,0,0,0,0,0,0,0,0,0,0,0,0,
0,0,0,0,0,0,0,0,0,0,0,0,0,0,0,0,
0,0,0,0,0,0,0,0,0,62,0,0,0,0,0,0,
0,0,0,0,0,0,0,0,0,0,60,0,0,0,0,0
</chunk>
   <chunk x="0" y="32" width="16" height="16">
0,0,0,0,0,0,0,0,0,59,0,0,0,0,0,0,
0,0,59,0,0,0,0,0,0,0,0,0,0,0,0,0,
0,0,0,0,0,0,0,0,0,0,0,0,0,0,0,0,
0,0,0,0,0,0,0,0,0,0,0,0,0,57,0,0,
0,0,0,0,0,0,0,0,0,0,0,0,0,0,0,0,
0,0,0,0,0,0,0,0,0,0,0,0,0,0,59,0,
0,0,0,0,0,0,0,0,0,0,0,0,0,0,0,0,
0,57,0,0,0,0,0,0,0,59,0,0,0,0,57,0,
0,0,0,0,0,0,0,0,0,0,0,0,0,0,0,0,
0,0,0,0,0,0,0,0,0,0,0,0,0,0,0,0,
0,0,0,0,0,59,0,0,0,0,0,0,0,0,0,0,
0,0,0,0,0,0,0,0,0,0,0,0,0,0,0,0,
0,0,0,0,0,0,0,0,0,0,0,0,0,0,0,0,
0,0,0,0,0,0,0,0,0,0,0,0,0,0,0,0,
0,0,0,0,0,0,0,0,0,57,0,0,0,0,0,0,
0,59,0,0,0,57,0,0,0,0,0,0,0,0,0,0
</chunk>
   <chunk x="16" y="32" width="16" height="16">
0,0,0,0,0,0,0,0,0,0,0,0,0,0,0,0,
0,0,0,0,0,0,0,0,0,0,0,0,0,0,0,0,
0,0,0,0,0,0,0,0,0,0,0,0,0,0,0,0,
59,0,57,0,0,0,0,0,0,0,0,0,0,0,0,0,
0,0,0,59,0,0,0,0,0,0,0,59,0,0,0,0,
57,57,0,0,0,0,0,0,0,0,0,0,0,0,0,0,
0,0,0,0,0,0,0,0,0,0,0,0,0,0,0,0,
0,0,0,0,0,0,0,0,0,0,0,0,0,0,0,0,
0,0,0,0,0,0,0,0,0,0,0,0,0,0,0,0,
0,0,0,0,0,0,0,0,0,0,0,0,0,0,0,0,
0,0,0,0,0,0,0,0,0,0,0,0,0,0,0,0,
0,0,0,0,0,0,0,0,0,0,0,0,0,0,0,0,
0,0,0,0,0,0,0,0,0,0,0,0,0,0,0,0,
0,0,0,0,0,0,0,0,0,0,0,0,0,0,0,0,
0,0,0,0,0,0,0,0,0,0,0,0,0,0,0,0,
0,0,0,0,0,0,0,0,0,0,0,0,0,0,0,0
</chunk>
   <chunk x="32" y="32" width="16" height="16">
0,0,0,0,0,0,0,0,0,0,0,0,0,0,0,0,
0,0,0,0,0,0,0,0,0,0,0,0,0,0,0,0,
0,0,0,0,0,0,0,0,0,0,0,0,0,0,0,0,
0,0,0,0,0,0,0,0,0,0,0,0,0,0,0,0,
0,0,0,0,0,0,0,0,0,0,0,0,0,0,0,0,
0,0,0,0,0,0,59,0,0,0,0,57,0,0,0,0,
0,0,0,0,0,0,0,0,0,0,59,0,0,0,0,0,
0,0,0,57,0,0,0,0,0,0,0,0,0,0,0,0,
0,0,0,0,0,0,0,0,0,0,0,0,0,57,0,0,
0,0,0,0,0,0,0,0,0,0,0,0,0,0,0,0,
0,0,0,0,0,0,0,0,0,0,0,0,0,0,0,0,
0,0,0,59,0,0,0,0,0,0,0,0,0,0,0,0,
0,0,0,0,0,0,0,0,0,0,0,0,0,0,0,0,
0,0,0,0,0,0,0,0,0,0,0,0,0,0,0,0,
0,0,0,0,0,0,0,0,0,0,0,0,0,0,0,0,
0,0,0,0,0,0,0,0,0,0,0,0,0,0,0,0
</chunk>
   <chunk x="48" y="32" width="16" height="16">
0,0,57,57,57,57,57,57,57,57,57,57,57,57,57,57,
0,0,57,57,57,57,57,57,57,57,57,57,57,57,57,57,
0,0,57,57,57,57,57,57,57,57,57,57,57,57,57,57,
0,0,57,57,57,57,57,57,57,57,57,57,57,57,57,57,
0,0,57,57,57,57,57,57,57,57,57,57,57,57,57,57,
0,0,57,57,57,57,57,57,57,57,57,57,57,57,57,57,
59,0,57,57,57,57,57,57,57,57,57,57,57,57,57,57,
0,0,57,57,57,57,57,57,57,57,57,57,57,57,57,57,
0,0,57,57,57,57,57,57,57,57,57,57,57,57,57,57,
0,0,57,57,57,57,57,57,57,57,57,57,57,57,57,57,
0,0,57,57,57,57,57,57,57,57,57,57,57,57,57,57,
0,0,57,57,57,57,57,57,57,57,57,57,57,57,57,57,
0,0,57,57,57,57,57,57,57,57,57,57,57,57,57,57,
0,0,57,57,57,57,57,57,57,57,57,57,57,57,57,57,
59,0,57,57,57,57,57,57,57,57,57,57,57,57,57,57,
0,0,57,57,57,57,57,57,57,57,57,57,57,57,57,57
</chunk>
   <chunk x="64" y="32" width="16" height="16">
57,57,0,0,0,0,0,0,0,0,0,0,0,0,0,0,
57,57,0,0,0,0,0,0,0,0,0,0,0,0,0,0,
57,57,0,0,0,0,0,0,0,0,0,0,0,0,0,0,
57,57,0,0,0,0,0,0,0,0,0,0,0,0,0,0,
57,57,0,0,0,0,0,0,0,0,0,0,0,0,0,0,
57,57,0,0,0,0,0,0,0,0,0,0,0,0,0,0,
57,57,0,0,0,0,0,0,0,0,0,0,0,0,0,0,
57,57,0,0,0,0,0,0,0,0,0,0,0,0,0,0,
57,57,0,0,0,0,0,0,0,0,0,0,0,0,0,0,
57,57,0,0,0,0,0,0,0,0,0,0,0,0,0,0,
57,57,0,0,0,0,0,0,0,0,0,0,0,0,0,0,
57,57,0,0,0,0,0,0,0,0,0,0,0,0,0,0,
57,57,0,0,0,0,0,0,0,0,0,0,0,0,0,0,
57,57,0,0,0,0,0,0,0,0,0,0,0,0,0,0,
57,57,0,0,0,0,0,0,0,0,0,0,0,0,0,0,
57,57,0,0,0,0,0,0,0,0,0,0,0,0,0,0
</chunk>
   <chunk x="-48" y="48" width="16" height="16">
0,0,60,60,60,60,60,60,60,60,60,60,60,60,60,60,
0,0,60,60,60,60,60,60,60,60,60,60,60,60,60,60,
0,0,60,60,60,60,60,60,60,60,60,60,60,60,60,60,
0,0,60,60,60,60,60,60,60,60,60,60,60,60,60,60,
0,0,60,60,60,60,60,60,60,60,60,60,60,60,60,60,
0,0,60,60,60,60,60,60,60,60,60,60,60,60,60,60,
0,0,60,60,60,60,60,60,60,60,60,60,60,60,60,60,
0,0,60,60,60,60,60,60,60,60,60,60,60,60,60,60,
0,0,60,60,60,60,60,60,60,60,60,60,60,60,60,60,
0,0,60,60,60,60,60,60,60,60,60,60,60,60,60,60,
0,0,60,60,60,60,60,60,60,60,60,60,60,60,60,60,
0,0,60,60,60,60,60,60,60,60,60,60,60,60,60,60,
0,0,60,60,60,60,60,60,60,60,60,60,60,60,60,60,
0,0,60,60,60,60,60,60,60,60,60,60,60,60,60,60,
0,0,60,60,60,60,60,60,60,60,60,60,60,60,60,60,
0,0,60,60,60,60,60,60,60,60,60,60,60,60,60,60
</chunk>
   <chunk x="-32" y="48" width="16" height="16">
60,60,0,0,62,0,0,0,0,60,62,0,0,0,0,0,
60,60,0,0,0,0,0,0,0,0,0,0,0,0,0,0,
60,60,60,60,60,60,60,60,60,60,60,60,60,60,60,60,
60,60,60,60,60,60,60,60,60,60,60,60,60,60,60,60,
60,60,60,60,60,60,60,60,60,60,60,60,60,60,60,60,
60,60,60,60,60,60,60,60,60,60,60,60,60,60,60,60,
60,60,60,60,60,60,60,60,60,60,60,60,60,60,60,60,
60,60,60,60,60,60,60,60,60,60,60,60,60,60,60,60,
60,60,60,60,60,60,60,60,60,60,60,60,60,60,60,60,
60,60,60,60,60,60,60,60,60,60,60,60,60,60,60,60,
60,60,60,60,60,60,60,60,60,60,60,60,60,60,60,60,
60,60,60,60,60,60,60,60,60,60,60,60,60,60,60,60,
60,60,60,60,60,60,60,60,60,60,60,60,60,60,60,60,
60,60,60,60,60,60,60,60,60,60,60,60,60,60,60,60,
60,60,60,60,60,60,60,60,60,60,60,60,60,60,60,60,
60,60,60,60,60,60,60,60,60,60,60,60,60,60,60,60
</chunk>
   <chunk x="-16" y="48" width="16" height="16">
62,0,0,0,0,0,0,0,0,62,0,0,0,0,0,0,
0,0,0,0,0,62,0,0,0,0,0,0,0,0,0,0,
60,60,60,60,60,60,60,60,60,60,60,60,57,57,57,57,
60,60,60,60,60,60,60,60,60,60,57,57,57,57,57,57,
60,60,60,60,60,60,60,60,60,57,57,57,57,57,57,57,
60,60,60,60,60,60,60,60,57,57,57,57,57,57,57,57,
60,60,60,60,60,60,60,57,57,57,57,57,57,57,57,57,
60,60,60,60,60,57,57,57,57,57,57,57,57,57,57,57,
60,60,60,60,60,57,57,57,57,57,57,57,57,57,57,57,
60,60,60,60,60,57,57,57,57,57,57,57,57,57,57,57,
60,60,60,60,60,57,57,57,57,57,57,57,57,57,57,57,
60,60,60,60,60,57,57,57,57,57,57,57,57,57,57,57,
60,60,60,60,60,57,57,57,57,57,57,57,57,57,57,57,
60,60,60,60,60,57,57,57,57,57,57,57,57,57,57,57,
60,60,60,60,60,60,57,57,57,57,57,57,57,57,57,57,
60,60,60,60,60,60,57,57,57,57,57,57,57,57,57,57
</chunk>
   <chunk x="0" y="48" width="16" height="16">
0,0,0,0,0,0,0,0,0,0,0,0,0,0,0,0,
0,0,0,0,0,0,0,0,0,0,0,0,0,0,0,0,
57,57,57,57,57,57,57,57,57,57,57,57,57,57,57,57,
57,57,57,57,57,57,57,57,57,57,57,57,57,57,57,57,
57,57,57,57,57,57,57,57,57,57,57,57,57,57,57,57,
57,57,57,57,57,57,57,57,57,57,57,57,57,57,57,57,
57,57,57,57,57,57,57,57,57,57,57,57,57,57,57,57,
57,57,57,57,57,57,57,57,57,57,57,57,57,57,57,57,
57,57,57,57,57,57,57,57,57,57,57,57,57,57,57,57,
57,57,57,57,57,57,57,57,57,57,57,57,57,57,57,57,
57,57,57,57,57,57,57,57,57,57,57,57,57,57,57,57,
57,57,57,57,57,57,57,57,57,57,57,57,57,57,57,57,
57,57,57,57,57,57,57,57,57,57,57,57,57,57,57,57,
57,57,57,57,57,57,57,57,57,57,57,57,57,57,57,57,
57,57,57,57,57,57,57,57,57,57,57,57,57,57,57,57,
57,57,57,57,57,57,57,57,57,57,57,57,57,57,57,57
</chunk>
   <chunk x="16" y="48" width="16" height="16">
0,0,0,0,0,0,59,0,0,0,0,0,0,0,0,0,
0,0,0,0,0,0,0,0,0,0,0,0,0,0,0,0,
57,57,57,57,57,57,57,57,57,57,57,57,57,57,57,57,
57,57,57,57,57,57,57,57,57,57,57,57,57,57,57,57,
57,57,57,57,57,57,57,57,57,57,57,57,57,57,57,57,
57,57,57,57,57,57,57,57,57,57,57,57,57,57,57,57,
57,57,57,57,57,57,57,57,57,57,57,57,57,57,57,57,
57,57,57,57,57,57,57,57,57,57,57,57,57,57,57,57,
57,57,57,57,57,57,57,57,57,57,57,57,57,57,57,57,
57,57,57,57,57,57,57,57,57,57,57,57,57,57,57,57,
57,57,57,57,57,57,57,57,57,57,57,57,57,57,57,57,
57,57,57,57,57,57,57,57,57,57,57,57,57,57,57,57,
57,57,57,57,57,57,57,57,57,57,57,57,57,57,57,57,
57,57,57,57,57,57,57,57,57,57,57,57,57,57,57,57,
57,57,57,57,57,57,57,57,57,57,57,57,57,57,57,57,
57,57,57,57,57,57,57,57,57,57,57,57,57,57,57,57
</chunk>
   <chunk x="32" y="48" width="16" height="16">
0,0,0,0,0,0,0,0,0,0,59,0,0,0,0,0,
0,59,0,0,0,0,0,0,0,0,0,0,0,0,59,0,
57,57,57,57,57,57,57,57,57,57,57,57,57,57,57,57,
57,57,57,57,57,57,57,57,57,57,57,57,57,57,57,57,
57,57,57,57,57,57,57,57,57,57,57,57,57,57,57,57,
57,57,57,57,57,57,57,57,57,57,57,57,57,57,57,57,
57,57,57,57,57,57,57,57,57,57,57,57,57,57,57,57,
57,57,57,57,57,57,57,57,57,57,57,57,57,57,57,57,
57,57,57,57,57,57,57,57,57,57,57,57,57,57,57,57,
57,57,57,57,57,57,57,57,57,57,57,57,57,57,57,57,
57,57,57,57,57,57,57,57,57,57,57,57,57,57,57,57,
57,57,57,57,57,57,57,57,57,57,57,57,57,57,57,57,
57,57,57,57,57,57,57,57,57,57,57,57,57,57,57,57,
57,57,57,57,57,57,57,57,57,57,57,57,57,57,57,57,
57,57,57,57,57,57,57,57,57,57,57,57,57,57,57,57,
57,57,57,57,57,57,57,57,57,57,57,57,57,57,57,57
</chunk>
   <chunk x="48" y="48" width="16" height="16">
0,0,57,57,57,57,57,57,57,57,57,57,57,57,57,57,
0,0,57,57,57,57,57,57,57,57,57,57,57,57,57,57,
57,57,57,57,57,57,57,57,57,57,57,57,57,57,57,57,
57,57,57,57,57,57,57,57,57,57,57,57,57,57,57,57,
57,57,57,57,57,57,57,57,57,57,57,57,57,57,57,57,
57,57,57,57,57,57,57,57,57,57,57,57,57,57,57,57,
57,57,57,57,57,57,57,57,57,57,57,57,57,57,57,57,
57,57,57,57,57,57,57,57,57,57,57,57,57,57,57,57,
57,57,57,57,57,57,57,57,57,57,57,57,57,57,57,57,
57,57,57,57,57,57,57,57,57,57,57,57,57,57,57,57,
57,57,57,57,57,57,57,57,57,57,57,57,57,57,57,57,
57,57,57,57,57,57,57,57,57,57,57,57,57,57,57,57,
57,57,57,57,57,57,57,57,57,57,57,57,57,57,57,57,
57,57,57,57,57,57,57,57,57,57,57,57,57,57,57,57,
57,57,57,57,57,57,57,57,57,57,57,57,57,57,57,57,
57,57,57,57,57,57,57,57,57,57,57,57,57,57,57,57
</chunk>
   <chunk x="64" y="48" width="16" height="16">
57,57,0,0,0,0,0,0,0,0,0,0,0,0,0,0,
57,57,0,0,0,0,0,0,0,0,0,0,0,0,0,0,
57,57,0,0,0,0,0,0,0,0,0,0,0,0,0,0,
57,57,0,0,0,0,0,0,0,0,0,0,0,0,0,0,
57,57,0,0,0,0,0,0,0,0,0,0,0,0,0,0,
57,57,0,0,0,0,0,0,0,0,0,0,0,0,0,0,
57,57,0,0,0,0,0,0,0,0,0,0,0,0,0,0,
57,57,0,0,0,0,0,0,0,0,0,0,0,0,0,0,
57,57,0,0,0,0,0,0,0,0,0,0,0,0,0,0,
57,57,0,0,0,0,0,0,0,0,0,0,0,0,0,0,
57,57,0,0,0,0,0,0,0,0,0,0,0,0,0,0,
57,57,0,0,0,0,0,0,0,0,0,0,0,0,0,0,
57,57,0,0,0,0,0,0,0,0,0,0,0,0,0,0,
57,57,0,0,0,0,0,0,0,0,0,0,0,0,0,0,
57,57,0,0,0,0,0,0,0,0,0,0,0,0,0,0,
57,57,0,0,0,0,0,0,0,0,0,0,0,0,0,0
</chunk>
   <chunk x="-48" y="64" width="16" height="16">
0,0,60,60,60,60,60,60,60,60,60,60,60,60,60,60,
0,0,60,60,60,60,60,60,60,60,60,60,60,60,60,60,
0,0,0,0,0,0,0,0,0,0,0,0,0,0,0,0,
0,0,0,0,0,0,0,0,0,0,0,0,0,0,0,0,
0,0,0,0,0,0,0,0,0,0,0,0,0,0,0,0,
0,0,0,0,0,0,0,0,0,0,0,0,0,0,0,0,
0,0,0,0,0,0,0,0,0,0,0,0,0,0,0,0,
0,0,0,0,0,0,0,0,0,0,0,0,0,0,0,0,
0,0,0,0,0,0,0,0,0,0,0,0,0,0,0,0,
0,0,0,0,0,0,0,0,0,0,0,0,0,0,0,0,
0,0,0,0,0,0,0,0,0,0,0,0,0,0,0,0,
0,0,0,0,0,0,0,0,0,0,0,0,0,0,0,0,
0,0,0,0,0,0,0,0,0,0,0,0,0,0,0,0,
0,0,0,0,0,0,0,0,0,0,0,0,0,0,0,0,
0,0,0,0,0,0,0,0,0,0,0,0,0,0,0,0,
0,0,0,0,0,0,0,0,0,0,0,0,0,0,0,0
</chunk>
   <chunk x="-32" y="64" width="16" height="16">
60,60,60,60,60,60,60,60,60,60,60,60,60,60,60,60,
60,60,60,60,60,60,60,60,60,60,60,60,60,60,60,60,
0,0,0,0,0,0,0,0,0,0,0,0,0,0,0,0,
0,0,0,0,0,0,0,0,0,0,0,0,0,0,0,0,
0,0,0,0,0,0,0,0,0,0,0,0,0,0,0,0,
0,0,0,0,0,0,0,0,0,0,0,0,0,0,0,0,
0,0,0,0,0,0,0,0,0,0,0,0,0,0,0,0,
0,0,0,0,0,0,0,0,0,0,0,0,0,0,0,0,
0,0,0,0,0,0,0,0,0,0,0,0,0,0,0,0,
0,0,0,0,0,0,0,0,0,0,0,0,0,0,0,0,
0,0,0,0,0,0,0,0,0,0,0,0,0,0,0,0,
0,0,0,0,0,0,0,0,0,0,0,0,0,0,0,0,
0,0,0,0,0,0,0,0,0,0,0,0,0,0,0,0,
0,0,0,0,0,0,0,0,0,0,0,0,0,0,0,0,
0,0,0,0,0,0,0,0,0,0,0,0,0,0,0,0,
0,0,0,0,0,0,0,0,0,0,0,0,0,0,0,0
</chunk>
   <chunk x="-16" y="64" width="16" height="16">
60,60,60,60,60,60,60,57,57,57,57,57,57,57,57,57,
60,60,60,60,60,60,60,57,57,57,57,57,57,57,57,57,
0,0,0,0,0,0,0,0,0,0,0,0,0,0,0,0,
0,0,0,0,0,0,0,0,0,0,0,0,0,0,0,0,
0,0,0,0,0,0,0,0,0,0,0,0,0,0,0,0,
0,0,0,0,0,0,0,0,0,0,0,0,0,0,0,0,
0,0,0,0,0,0,0,0,0,0,0,0,0,0,0,0,
0,0,0,0,0,0,0,0,0,0,0,0,0,0,0,0,
0,0,0,0,0,0,0,0,0,0,0,0,0,0,0,0,
0,0,0,0,0,0,0,0,0,0,0,0,0,0,0,0,
0,0,0,0,0,0,0,0,0,0,0,0,0,0,0,0,
0,0,0,0,0,0,0,0,0,0,0,0,0,0,0,0,
0,0,0,0,0,0,0,0,0,0,0,0,0,0,0,0,
0,0,0,0,0,0,0,0,0,0,0,0,0,0,0,0,
0,0,0,0,0,0,0,0,0,0,0,0,0,0,0,0,
0,0,0,0,0,0,0,0,0,0,0,0,0,0,0,0
</chunk>
   <chunk x="0" y="64" width="16" height="16">
57,57,57,57,57,57,57,57,57,57,57,57,57,57,57,57,
57,57,57,57,57,57,57,57,57,57,57,57,57,57,57,57,
0,0,0,0,0,0,0,0,0,0,0,0,0,0,0,0,
0,0,0,0,0,0,0,0,0,0,0,0,0,0,0,0,
0,0,0,0,0,0,0,0,0,0,0,0,0,0,0,0,
0,0,0,0,0,0,0,0,0,0,0,0,0,0,0,0,
0,0,0,0,0,0,0,0,0,0,0,0,0,0,0,0,
0,0,0,0,0,0,0,0,0,0,0,0,0,0,0,0,
0,0,0,0,0,0,0,0,0,0,0,0,0,0,0,0,
0,0,0,0,0,0,0,0,0,0,0,0,0,0,0,0,
0,0,0,0,0,0,0,0,0,0,0,0,0,0,0,0,
0,0,0,0,0,0,0,0,0,0,0,0,0,0,0,0,
0,0,0,0,0,0,0,0,0,0,0,0,0,0,0,0,
0,0,0,0,0,0,0,0,0,0,0,0,0,0,0,0,
0,0,0,0,0,0,0,0,0,0,0,0,0,0,0,0,
0,0,0,0,0,0,0,0,0,0,0,0,0,0,0,0
</chunk>
   <chunk x="16" y="64" width="16" height="16">
57,57,57,57,57,57,57,57,57,57,57,57,57,57,57,57,
57,57,57,57,57,57,57,57,57,57,57,57,57,57,57,57,
0,0,0,0,0,0,0,0,0,0,0,0,0,0,0,0,
0,0,0,0,0,0,0,0,0,0,0,0,0,0,0,0,
0,0,0,0,0,0,0,0,0,0,0,0,0,0,0,0,
0,0,0,0,0,0,0,0,0,0,0,0,0,0,0,0,
0,0,0,0,0,0,0,0,0,0,0,0,0,0,0,0,
0,0,0,0,0,0,0,0,0,0,0,0,0,0,0,0,
0,0,0,0,0,0,0,0,0,0,0,0,0,0,0,0,
0,0,0,0,0,0,0,0,0,0,0,0,0,0,0,0,
0,0,0,0,0,0,0,0,0,0,0,0,0,0,0,0,
0,0,0,0,0,0,0,0,0,0,0,0,0,0,0,0,
0,0,0,0,0,0,0,0,0,0,0,0,0,0,0,0,
0,0,0,0,0,0,0,0,0,0,0,0,0,0,0,0,
0,0,0,0,0,0,0,0,0,0,0,0,0,0,0,0,
0,0,0,0,0,0,0,0,0,0,0,0,0,0,0,0
</chunk>
   <chunk x="32" y="64" width="16" height="16">
57,57,57,57,57,57,57,57,57,57,57,57,57,57,57,57,
57,57,57,57,57,57,57,57,57,57,57,57,57,57,57,57,
0,0,0,0,0,0,0,0,0,0,0,0,0,0,0,0,
0,0,0,0,0,0,0,0,0,0,0,0,0,0,0,0,
0,0,0,0,0,0,0,0,0,0,0,0,0,0,0,0,
0,0,0,0,0,0,0,0,0,0,0,0,0,0,0,0,
0,0,0,0,0,0,0,0,0,0,0,0,0,0,0,0,
0,0,0,0,0,0,0,0,0,0,0,0,0,0,0,0,
0,0,0,0,0,0,0,0,0,0,0,0,0,0,0,0,
0,0,0,0,0,0,0,0,0,0,0,0,0,0,0,0,
0,0,0,0,0,0,0,0,0,0,0,0,0,0,0,0,
0,0,0,0,0,0,0,0,0,0,0,0,0,0,0,0,
0,0,0,0,0,0,0,0,0,0,0,0,0,0,0,0,
0,0,0,0,0,0,0,0,0,0,0,0,0,0,0,0,
0,0,0,0,0,0,0,0,0,0,0,0,0,0,0,0,
0,0,0,0,0,0,0,0,0,0,0,0,0,0,0,0
</chunk>
   <chunk x="48" y="64" width="16" height="16">
57,57,57,57,57,57,57,57,57,57,57,57,57,57,57,57,
57,57,57,57,57,57,57,57,57,57,57,57,57,57,57,57,
0,0,0,0,0,0,0,0,0,0,0,0,0,0,0,0,
0,0,0,0,0,0,0,0,0,0,0,0,0,0,0,0,
0,0,0,0,0,0,0,0,0,0,0,0,0,0,0,0,
0,0,0,0,0,0,0,0,0,0,0,0,0,0,0,0,
0,0,0,0,0,0,0,0,0,0,0,0,0,0,0,0,
0,0,0,0,0,0,0,0,0,0,0,0,0,0,0,0,
0,0,0,0,0,0,0,0,0,0,0,0,0,0,0,0,
0,0,0,0,0,0,0,0,0,0,0,0,0,0,0,0,
0,0,0,0,0,0,0,0,0,0,0,0,0,0,0,0,
0,0,0,0,0,0,0,0,0,0,0,0,0,0,0,0,
0,0,0,0,0,0,0,0,0,0,0,0,0,0,0,0,
0,0,0,0,0,0,0,0,0,0,0,0,0,0,0,0,
0,0,0,0,0,0,0,0,0,0,0,0,0,0,0,0,
0,0,0,0,0,0,0,0,0,0,0,0,0,0,0,0
</chunk>
   <chunk x="64" y="64" width="16" height="16">
57,57,0,0,0,0,0,0,0,0,0,0,0,0,0,0,
57,57,0,0,0,0,0,0,0,0,0,0,0,0,0,0,
0,0,0,0,0,0,0,0,0,0,0,0,0,0,0,0,
0,0,0,0,0,0,0,0,0,0,0,0,0,0,0,0,
0,0,0,0,0,0,0,0,0,0,0,0,0,0,0,0,
0,0,0,0,0,0,0,0,0,0,0,0,0,0,0,0,
0,0,0,0,0,0,0,0,0,0,0,0,0,0,0,0,
0,0,0,0,0,0,0,0,0,0,0,0,0,0,0,0,
0,0,0,0,0,0,0,0,0,0,0,0,0,0,0,0,
0,0,0,0,0,0,0,0,0,0,0,0,0,0,0,0,
0,0,0,0,0,0,0,0,0,0,0,0,0,0,0,0,
0,0,0,0,0,0,0,0,0,0,0,0,0,0,0,0,
0,0,0,0,0,0,0,0,0,0,0,0,0,0,0,0,
0,0,0,0,0,0,0,0,0,0,0,0,0,0,0,0,
0,0,0,0,0,0,0,0,0,0,0,0,0,0,0,0,
0,0,0,0,0,0,0,0,0,0,0,0,0,0,0,0
</chunk>
  </data>
 </layer>
 <objectgroup id="2" name="PlayerSpawn">
  <object id="1" x="1120" y="928" width="192" height="192"/>
 </objectgroup>
 <objectgroup id="4" name="Collision">
  <object id="23" x="-7936" y="-7808" width="18176" height="3968"/>
  <object id="24" x="-7936" y="-3840" width="4096" height="14080"/>
  <object id="25" x="6400" y="-3840" width="3840" height="14080"/>
  <object id="26" x="-3840" y="6400" width="10240" height="3840"/>
  <object id="41" x="-3328" y="-3456" width="128" height="128">
   <ellipse/>
  </object>
  <object id="42" x="-3840" y="-3072" width="128" height="128">
   <ellipse/>
  </object>
  <object id="43" x="-3712" y="-3072" width="128" height="128">
   <ellipse/>
  </object>
  <object id="44" x="-3200" y="-2816" width="128" height="128">
   <ellipse/>
  </object>
  <object id="45" x="-3072" y="-2432" width="128" height="128">
   <ellipse/>
  </object>
  <object id="46" x="-3200" y="-2304" width="128" height="128">
   <ellipse/>
  </object>
  <object id="47" x="-3456" y="-2176" width="128" height="128">
   <ellipse/>
  </object>
  <object id="48" x="-1920" y="-1920" width="128" height="128">
   <ellipse/>
  </object>
  <object id="49" x="-1920" y="-1792" width="128" height="128">
   <ellipse/>
  </object>
  <object id="50" x="-3328" y="-896" width="128" height="128">
   <ellipse/>
  </object>
  <object id="51" x="-3200" y="-896" width="128" height="128">
   <ellipse/>
  </object>
  <object id="52" x="-3200" y="-384" width="128" height="128">
   <ellipse/>
  </object>
  <object id="53" x="-3584" y="-256" width="128" height="128">
   <ellipse/>
  </object>
  <object id="54" x="-3584" y="-128" width="128" height="128">
   <ellipse/>
  </object>
  <object id="55" x="-3456" y="384" width="128" height="128">
   <ellipse/>
  </object>
  <object id="56" x="-3072" y="384" width="128" height="128">
   <ellipse/>
  </object>
  <object id="57" x="-3200" y="1408" width="128" height="128">
   <ellipse/>
  </object>
  <object id="58" x="-2816" y="1408" width="128" height="128">
   <ellipse/>
  </object>
  <object id="59" x="-2816" y="1664" width="128" height="128">
   <ellipse/>
  </object>
  <object id="60" x="-1664" y="1792" width="128" height="128">
   <ellipse/>
  </object>
  <object id="61" x="-1920" y="512" width="128" height="128">
   <ellipse/>
  </object>
  <object id="62" x="-2304" y="256" width="128" height="128">
   <ellipse/>
  </object>
  <object id="63" x="-2048" y="-384" width="128" height="128">
   <ellipse/>
  </object>
  <object id="64" x="-1536" y="-384" width="128" height="128">
   <ellipse/>
  </object>
  <object id="65" x="-1536" y="-256" width="128" height="128">
   <ellipse/>
  </object>
  <object id="66" x="-1280" y="256" width="128" height="128">
   <ellipse/>
  </object>
  <object id="67" x="-1280" y="384" width="128" height="128">
   <ellipse/>
  </object>
  <object id="68" x="-1152" y="384" width="128" height="128">
   <ellipse/>
  </object>
  <object id="69" x="0" y="128" width="128" height="128">
   <ellipse/>
  </object>
  <object id="70" x="384" y="-256" width="128" height="128">
   <ellipse/>
  </object>
  <object id="73" x="640" y="-640" width="128" height="128">
   <ellipse/>
  </object>
  <object id="74" x="-640" y="-768" width="128" height="128">
   <ellipse/>
  </object>
  <object id="75" x="-1408" y="-2688" width="128" height="128">
   <ellipse/>
  </object>
  <object id="76" x="-1792" y="-2944" width="128" height="128">
   <ellipse/>
  </object>
  <object id="77" x="-1280" y="-3072" width="128" height="128">
   <ellipse/>
  </object>
  <object id="78" x="0" y="-2944" width="128" height="128">
   <ellipse/>
  </object>
  <object id="79" x="640" y="-2432" width="128" height="128">
   <ellipse/>
  </object>
  <object id="80" x="256" y="-1920" width="128" height="128">
   <ellipse/>
  </object>
  <object id="82" x="2944" y="-2944" width="128" height="128">
   <ellipse/>
  </object>
  <object id="83" x="384" y="1536" width="128" height="128">
   <ellipse/>
  </object>
  <object id="84" x="128" y="2048" width="128" height="128">
   <ellipse/>
  </object>
  <object id="85" x="-1152" y="2816" width="128" height="128">
   <ellipse/>
  </object>
  <object id="86" x="-1664" y="1792" width="128" height="128">
   <ellipse/>
  </object>
  <object id="87" x="-2944" y="2688" width="128" height="128">
   <ellipse/>
  </object>
  <object id="88" x="-3200" y="2816" width="128" height="128">
   <ellipse/>
  </object>
  <object id="89" x="-3072" y="3456" width="128" height="128">
   <ellipse/>
  </object>
  <object id="90" x="-3712" y="3968" width="128" height="128">
   <ellipse/>
  </object>
  <object id="91" x="-3712" y="4096" width="128" height="128">
   <ellipse/>
  </object>
  <object id="92" x="-3328" y="4864" width="128" height="128">
   <ellipse/>
  </object>
  <object id="93" x="-3328" y="4992" width="128" height="128">
   <ellipse/>
  </object>
  <object id="94" x="-3712" y="6016" width="128" height="128">
   <ellipse/>
  </object>
  <object id="95" x="-2944" y="5888" width="128" height="128">
   <ellipse/>
  </object>
  <object id="96" x="-2816" y="5888" width="128" height="128">
   <ellipse/>
  </object>
  <object id="97" x="-2944" y="6144" width="128" height="128">
   <ellipse/>
  </object>
  <object id="98" x="-2304" y="5888" width="128" height="128">
   <ellipse/>
  </object>
  <object id="99" x="-2048" y="4608" width="128" height="128">
   <ellipse/>
  </object>
  <object id="100" x="-1280" y="5120" width="128" height="128">
   <ellipse/>
  </object>
  <object id="101" x="-1280" y="5248" width="128" height="128">
   <ellipse/>
  </object>
  <object id="102" x="-768" y="6016" width="128" height="128">
   <ellipse/>
  </object>
  <object id="103" x="640" y="6016" width="128" height="128">
   <ellipse/>
  </object>
  <object id="104" x="1152" y="5888" width="128" height="128">
   <ellipse/>
  </object>
  <object id="106" x="128" y="4992" width="128" height="128">
   <ellipse/>
  </object>
  <object id="107" x="1792" y="4992" width="128" height="128">
   <ellipse/>
  </object>
  <object id="108" x="2048" y="4736" width="128" height="128">
   <ellipse/>
  </object>
  <object id="109" x="2176" y="4736" width="128" height="128">
   <ellipse/>
  </object>
  <object id="110" x="2304" y="4480" width="128" height="128">
   <ellipse/>
  </object>
  <object id="111" x="1664" y="4480" width="128" height="128">
   <ellipse/>
  </object>
  <object id="112" x="1408" y="3456" width="128" height="128">
   <ellipse/>
  </object>
  <object id="113" x="128" y="3328" width="128" height="128">
   <ellipse/>
  </object>
  <object id="114" x="0" y="3328" width="128" height="128">
   <ellipse/>
  </object>
  <object id="115" x="-384" y="3712" width="128" height="128">
   <ellipse/>
  </object>
  <object id="116" x="-384" y="3840" width="128" height="128">
   <ellipse/>
  </object>
  <object id="117" x="2176" y="2048" width="128" height="128">
   <ellipse/>
  </object>
  <object id="118" x="2432" y="2176" width="128" height="128">
   <ellipse/>
  </object>
  <object id="119" x="2944" y="2176" width="128" height="128">
   <ellipse/>
  </object>
  <object id="120" x="2688" y="1920" width="128" height="128">
   <ellipse/>
  </object>
  <object id="121" x="2816" y="1536" width="128" height="128">
   <ellipse/>
  </object>
  <object id="122" x="3456" y="384" width="128" height="128">
   <ellipse/>
  </object>
  <object id="123" x="2688" y="-512" width="128" height="128">
   <ellipse/>
  </object>
  <object id="124" x="2560" y="-896" width="128" height="128">
   <ellipse/>
  </object>
  <object id="125" x="2944" y="-1024" width="128" height="128">
   <ellipse/>
  </object>
  <object id="126" x="3456" y="-768" width="128" height="128">
   <ellipse/>
  </object>
  <object id="127" x="5120" y="-512" width="128" height="128">
   <ellipse/>
  </object>
  <object id="128" x="6016" y="-512" width="128" height="128">
   <ellipse/>
  </object>
  <object id="129" x="5248" y="-128" width="128" height="128">
   <ellipse/>
  </object>
  <object id="130" x="6016" y="0" width="128" height="128">
   <ellipse/>
  </object>
  <object id="131" x="5888" y="512" width="128" height="128">
   <ellipse/>
  </object>
  <object id="132" x="3328" y="-2176" width="128" height="128">
   <ellipse/>
  </object>
  <object id="133" x="2816" y="-2176" width="128" height="128">
   <ellipse/>
  </object>
  <object id="134" x="5760" y="5120" width="128" height="128">
   <ellipse/>
  </object>
  <object id="135" x="5504" y="4736" width="128" height="128">
   <ellipse/>
  </object>
  <object id="137" x="4480" y="4992" width="128" height="128">
   <ellipse/>
  </object>
  <object id="138" x="5248" y="2688" width="128" height="128">
   <ellipse/>
  </object>
  <object id="139" x="5632" y="2048" width="128" height="128">
   <ellipse/>
  </object>
  <object id="140" x="5632" y="1920" width="128" height="128">
   <ellipse/>
  </object>
  <object id="141" x="4736" y="1664" width="128" height="128">
   <ellipse/>
  </object>
 </objectgroup>
 <objectgroup id="5" name="EnemySpawn">
  <object id="20" x="640" y="-544" width="1760" height="832"/>
 </objectgroup>
 <objectgroup id="6" name="Indestructibles">
  <object id="28" gid="13" x="6336" y="896" width="128" height="128" rotation="90"/>
  <object id="29" gid="13" x="6336" y="1024" width="128" height="128" rotation="90"/>
  <object id="30" gid="13" x="6336" y="-3456" width="128" height="128" rotation="90"/>
  <object id="31" gid="13" x="-3904" y="896" width="128" height="128" rotation="90"/>
  <object id="32" gid="13" x="-3904" y="1024" width="128" height="128" rotation="90"/>
  <object id="34" gid="16" x="6848" y="-3456" width="128" height="128" rotation="90"/>
  <object id="38" gid="15" x="5088" y="-1856" width="128" height="128"/>
  <object id="39" gid="15" x="5152" y="-1856" width="128" height="128"/>
  <object id="40" gid="15" x="5120" y="-1888" width="128" height="128"/>
  <object id="142" gid="14" x="5952" y="3712" width="128" height="128" rotation="90"/>
  <object id="144" gid="14" x="448" y="2816" width="128" height="128" rotation="90"/>
  <object id="145" gid="14" x="-3648" y="2048" width="128" height="128" rotation="90"/>
  <object id="146" gid="14" x="-64" y="-3456" width="128" height="128" rotation="90"/>
  <object id="147" gid="13" x="-2432" y="-1728" width="128" height="128" rotation="180"/>
  <object id="148" gid="13" x="1376" y="-1152" width="128" height="128" rotation="-90"/>
  <object id="152" gid="15" x="5984" y="3712" width="128" height="128" rotation="90"/>
  <object id="153" gid="15" x="416" y="2816" width="128" height="128" rotation="90"/>
  <object id="154" gid="16" x="-3680" y="2048" width="128" height="128" rotation="90"/>
 </objectgroup>
 <objectgroup id="7" name="Destructibles">
  <object id="155" gid="12" x="1152" y="1312" width="128" height="128"/>
  <object id="156" gid="12" x="864" y="1408" width="128" height="128"/>
  <object id="157" gid="12" x="640" y="800" width="128" height="128"/>
  <object id="158" gid="12" x="1568" y="704" width="128" height="128"/>
  <object id="159" gid="12" x="1664" y="800" width="128" height="128"/>
  <object id="160" gid="12" x="1152" y="704" width="128" height="128"/>
  <object id="161" gid="12" x="1824" y="1536" width="128" height="128"/>
  <object id="162" gid="12" x="1600" y="1856" width="128" height="128"/>
  <object id="163" gid="12" x="1024" y="1920" width="128" height="128"/>
 </objectgroup>
</map>
